;FLAVOR:Marlin
;TIME:13960
;Filament used: 5.84618m
;Layer height: 0.12
;MINX:19.801
;MINY:9.435
;MINZ:0.12
;MAXX:200.2
;MAXY:201.499
;MAXZ:12.7
;Generated with Cura_SteamEngine 4.8.0
M140 S60
M105
M190 S60
M104 S200
M105
M109 S200
M82 ;absolute extrusion mode
; Ender 3 Custom Start G-code
G92 E0 ; Reset Extruder
G28 ; Home all axes
G1 Z2.0 F3000 ; Move Z Axis up little to prevent scratching of Heat Bed
G1 X0.1 Y20 Z0.3 F5000.0 ; Move to start position
G1 X0.1 Y200.0 Z0.3 F1500.0 E15 ; Draw the first line
G1 X0.4 Y200.0 Z0.3 F5000.0 ; Move to side a little
G1 X0.4 Y20 Z0.3 F1500.0 E30 ; Draw the second line
G92 E0 ; Reset Extruder
G1 Z2.0 F3000 ; Move Z Axis up little to prevent scratching of Heat Bed
G1 X5 Y20 Z0.3 F5000.0 ; Move over to prevent blob squish
G92 E0
G92 E0
G1 F1500 E-6.5
;LAYER_COUNT:64
;LAYER:0
M107
G0 F6000 X31.481 Y126.229 Z0.12
;TYPE:SKIRT
G1 F1500 E0
G1 F1200 X31.813 Y126.154 E0.00815
G1 X33.154 Y125.936 E0.04069
G1 X33.836 Y125.867 E0.0571
G1 X34.497 Y125.82 E0.07297
G1 X34.665 Y125.813 E0.077
G1 X35.003 Y125.804 E0.08509
G1 X35.567 Y125.798 E0.0986
G1 X74.293 Y125.798 E1.02598
G1 X75.158 Y125.809 E1.0467
G1 X75.571 Y125.823 E1.0566
G1 X75.786 Y125.834 E1.06175
G1 X76.245 Y125.867 E1.07277
G1 X76.548 Y125.895 E1.08006
G1 X77.878 Y126.099 E1.11228
G1 X78.555 Y126.245 E1.12887
G1 X79.471 Y126.483 E1.15153
G1 X79.999 Y126.659 E1.16486
G1 X80.226 Y126.741 E1.17064
G1 X80.873 Y126.998 E1.18731
G1 X81.277 Y127.173 E1.19785
G1 X82.41 Y127.742 E1.22821
G1 X82.556 Y127.826 E1.23225
G1 X82.959 Y128.069 E1.24352
G1 X83.332 Y128.305 E1.25409
G1 X84.341 Y129.024 E1.28376
G1 X84.501 Y129.152 E1.28866
G1 X84.911 Y129.497 E1.3015
G1 X85.232 Y129.78 E1.31174
G1 X86.115 Y130.65 E1.34143
G1 X86.244 Y130.792 E1.34602
G1 X86.573 Y131.171 E1.35804
G1 X86.846 Y131.5 E1.36828
G1 X87.597 Y132.517 E1.39855
G1 X87.707 Y132.685 E1.40336
G1 X87.959 Y133.088 E1.41475
G1 X88.18 Y133.459 E1.42509
G1 X88.79 Y134.637 E1.45686
G1 X88.871 Y134.819 E1.46163
G1 X89.045 Y135.232 E1.47236
G1 X89.201 Y135.624 E1.48246
G1 X89.613 Y136.865 E1.51377
G1 X89.665 Y137.059 E1.51858
G1 X89.772 Y137.493 E1.52929
G1 X89.865 Y137.905 E1.5394
G1 X90.068 Y139.104 E1.56852
G1 X90.091 Y139.306 E1.57339
G1 X90.14 Y139.863 E1.58678
G1 X90.167 Y140.288 E1.59698
G1 X90.182 Y140.576 E1.60389
G1 X90.195 Y141.024 E1.61462
G1 X90.2 Y141.493 E1.62585
G1 X90.199 Y189.717 E2.78069
G1 X90.189 Y190.444 E2.7981
G1 X90.136 Y191.389 E2.82076
G1 X90.003 Y192.326 E2.84343
G1 X89.792 Y193.248 E2.86608
G1 X89.504 Y194.15 E2.88875
G1 X89.141 Y195.024 E2.91142
G1 X88.705 Y195.864 E2.93408
G1 X88.199 Y196.664 E2.95675
G1 X87.628 Y197.419 E2.97942
G1 X86.996 Y198.122 E3.00205
G1 X86.306 Y198.77 E3.02472
G1 X85.564 Y199.358 E3.04739
G1 X84.775 Y199.88 E3.07005
G1 X83.945 Y200.334 E3.09271
G1 X83.079 Y200.717 E3.11538
G1 X82.184 Y201.025 E3.13805
G1 X81.267 Y201.256 E3.16069
G1 X80.333 Y201.409 E3.18336
G1 X79.305 Y201.486 E3.20805
G1 X78.985 Y201.495 E3.21571
G1 X78.67 Y201.499 E3.22326
G1 X31.548 Y201.499 E4.3517
G1 X30.85 Y201.489 E4.36842
G1 X29.905 Y201.435 E4.39108
G1 X28.968 Y201.302 E4.41375
G1 X28.045 Y201.091 E4.43642
G1 X27.144 Y200.802 E4.45908
G1 X26.271 Y200.438 E4.48173
G1 X25.431 Y200.001 E4.50441
G1 X24.631 Y199.496 E4.52706
G1 X23.876 Y198.924 E4.54974
G1 X23.173 Y198.291 E4.5724
G1 X22.526 Y197.601 E4.59505
G1 X21.939 Y196.859 E4.61771
G1 X21.416 Y196.07 E4.64038
G1 X20.963 Y195.239 E4.66304
G1 X20.581 Y194.373 E4.68571
G1 X20.273 Y193.478 E4.70837
G1 X20.043 Y192.56 E4.73104
G1 X19.89 Y191.626 E4.7537
G1 X19.815 Y190.611 E4.77807
G1 X19.806 Y190.297 E4.7856
G1 X19.801 Y189.976 E4.79328
G1 X19.801 Y141.546 E5.95305
G1 X19.811 Y140.84 E5.96996
G1 X19.823 Y140.456 E5.97916
G1 X19.833 Y140.25 E5.9841
G1 X19.868 Y139.755 E5.99598
G1 X19.907 Y139.336 E6.00606
G1 X20.101 Y138.058 E6.03702
G1 X20.142 Y137.864 E6.04176
G1 X20.245 Y137.42 E6.05268
G1 X20.35 Y137.007 E6.06288
G1 X20.739 Y135.78 E6.09371
G1 X20.819 Y135.57 E6.09909
G1 X21.009 Y135.103 E6.11116
G1 X21.175 Y134.72 E6.12116
G1 X21.764 Y133.553 E6.15246
G1 X21.858 Y133.391 E6.15695
G1 X22.086 Y133.014 E6.1675
G1 X22.313 Y132.656 E6.17765
G1 X23.016 Y131.67 E6.20665
G1 X23.15 Y131.502 E6.2118
G1 X23.534 Y131.047 E6.22605
G1 X23.813 Y130.733 E6.23611
G1 X24.619 Y129.913 E6.26365
G1 X24.762 Y129.782 E6.26829
G1 X25.184 Y129.415 E6.28168
G1 X25.51 Y129.145 E6.29182
G1 X26.519 Y128.401 E6.32184
G1 X26.687 Y128.291 E6.32665
G1 X27.106 Y128.029 E6.33849
G1 X27.47 Y127.813 E6.34862
G1 X28.572 Y127.24 E6.37837
G1 X28.76 Y127.155 E6.38331
G1 X29.237 Y126.952 E6.39572
G1 X29.632 Y126.795 E6.4059
G1 X30.827 Y126.396 E6.43607
G1 X31.007 Y126.347 E6.44054
G1 X31.481 Y126.229 E6.45223
G0 F6000 X31.587 Y126.697
G1 F1200 X31.919 Y126.622 E6.46039
G1 X33.202 Y126.413 E6.49152
G1 X33.884 Y126.344 E6.50793
G1 X34.517 Y126.299 E6.52313
G1 X34.685 Y126.292 E6.52715
G1 X35.008 Y126.284 E6.53489
G1 X35.567 Y126.278 E6.54828
G1 X74.293 Y126.278 E7.47566
G1 X75.151 Y126.289 E7.49621
G1 X75.547 Y126.302 E7.5057
G1 X75.762 Y126.313 E7.51085
G1 X76.2 Y126.344 E7.52137
G1 X76.503 Y126.372 E7.52866
G1 X77.777 Y126.568 E7.55952
G1 X78.454 Y126.714 E7.57611
G1 X79.35 Y126.948 E7.59829
G1 X79.836 Y127.111 E7.61056
G1 X80.063 Y127.193 E7.61634
G1 X80.682 Y127.438 E7.63228
G1 X81.086 Y127.613 E7.64283
G1 X82.171 Y128.158 E7.6719
G1 X82.317 Y128.242 E7.67594
G1 X82.703 Y128.475 E7.68673
G1 X83.076 Y128.711 E7.6973
G1 X84.041 Y129.399 E7.72568
G1 X84.201 Y129.527 E7.73059
G1 X84.593 Y129.857 E7.74286
G1 X84.914 Y130.14 E7.75311
G1 X85.76 Y130.973 E7.78154
G1 X85.889 Y131.115 E7.78614
G1 X86.204 Y131.478 E7.79765
G1 X86.477 Y131.807 E7.80788
G1 X87.196 Y132.78 E7.83686
G1 X87.306 Y132.948 E7.84166
G1 X87.547 Y133.334 E7.85256
G1 X87.768 Y133.705 E7.8629
G1 X88.352 Y134.832 E7.8933
G1 X88.433 Y135.014 E7.89807
G1 X88.599 Y135.409 E7.90833
G1 X88.755 Y135.801 E7.91843
G1 X89.149 Y136.99 E7.94843
G1 X89.201 Y137.184 E7.95324
G1 X89.304 Y137.599 E7.96348
G1 X89.397 Y138.011 E7.97359
G1 X89.591 Y139.158 E8.00145
G1 X89.614 Y139.36 E8.00632
G1 X89.661 Y139.893 E8.01913
G1 X89.688 Y140.318 E8.02933
G1 X89.708 Y140.753 E8.03976
G1 X89.715 Y141.029 E8.04637
G1 X89.72 Y141.493 E8.05748
G1 X89.719 Y189.71 E9.21215
G1 X89.709 Y190.437 E9.22956
G1 X89.656 Y191.362 E9.25175
G1 X89.524 Y192.278 E9.27391
G1 X89.313 Y193.18 E9.2961
G1 X89.025 Y194.06 E9.31827
G1 X88.663 Y194.911 E9.34042
G1 X88.228 Y195.729 E9.3626
G1 X87.724 Y196.506 E9.38478
G1 X87.155 Y197.236 E9.40695
G1 X86.525 Y197.915 E9.42913
G1 X85.839 Y198.537 E9.4513
G1 X85.102 Y199.097 E9.47347
G1 X84.32 Y199.591 E9.49562
G1 X83.497 Y200.016 E9.5178
G1 X82.641 Y200.369 E9.53997
G1 X81.758 Y200.647 E9.56214
G1 X80.854 Y200.847 E9.58431
G1 X79.936 Y200.968 E9.60649
G1 X79.291 Y201.006 E9.62196
G1 X78.971 Y201.015 E9.62963
G1 X78.67 Y201.019 E9.63684
G1 X31.554 Y201.019 E10.76514
G1 X30.856 Y201.009 E10.78185
G1 X29.932 Y200.956 E10.80402
G1 X29.016 Y200.823 E10.82618
G1 X28.114 Y200.612 E10.84837
G1 X27.235 Y200.323 E10.87052
G1 X26.383 Y199.96 E10.8927
G1 X25.566 Y199.525 E10.91487
G1 X24.789 Y199.021 E10.93705
G1 X24.059 Y198.451 E10.95923
G1 X23.381 Y197.821 E10.98139
G1 X22.76 Y197.135 E11.00355
G1 X22.2 Y196.397 E11.02573
G1 X21.706 Y195.614 E11.0479
G1 X21.281 Y194.792 E11.07006
G1 X20.929 Y193.935 E11.09225
G1 X20.652 Y193.052 E11.11441
G1 X20.452 Y192.148 E11.13658
G1 X20.331 Y191.23 E11.15876
G1 X20.294 Y190.597 E11.17394
G1 X20.285 Y190.283 E11.18146
G1 X20.281 Y189.976 E11.18882
G1 X20.281 Y141.553 E12.34842
G1 X20.291 Y140.847 E12.36533
G1 X20.303 Y140.479 E12.37414
G1 X20.313 Y140.273 E12.37908
G1 X20.346 Y139.799 E12.39046
G1 X20.385 Y139.38 E12.40054
G1 X20.571 Y138.157 E12.43016
G1 X20.612 Y137.963 E12.43491
G1 X20.711 Y137.539 E12.44534
G1 X20.816 Y137.126 E12.45554
G1 X21.187 Y135.951 E12.48505
G1 X21.267 Y135.741 E12.49043
G1 X21.449 Y135.294 E12.50199
G1 X21.615 Y134.911 E12.51199
G1 X22.179 Y133.794 E12.54195
G1 X22.273 Y133.632 E12.54644
G1 X22.492 Y133.271 E12.55655
G1 X22.719 Y132.913 E12.5667
G1 X23.391 Y131.969 E12.59445
G1 X23.525 Y131.801 E12.59959
G1 X23.892 Y131.366 E12.61322
G1 X24.171 Y131.052 E12.62328
G1 X24.944 Y130.267 E12.64966
G1 X25.087 Y130.136 E12.65431
G1 X25.49 Y129.785 E12.66711
G1 X25.816 Y129.515 E12.67724
G1 X26.782 Y128.802 E12.706
G1 X26.95 Y128.692 E12.7108
G1 X27.351 Y128.442 E12.72212
G1 X27.715 Y128.226 E12.73226
G1 X28.77 Y127.677 E12.76074
G1 X28.958 Y127.592 E12.76568
G1 X29.414 Y127.398 E12.77755
G1 X29.809 Y127.241 E12.78772
G1 X30.953 Y126.859 E12.81661
G1 X31.133 Y126.81 E12.82107
G1 X31.587 Y126.697 E12.83228
G0 F6000 X31.693 Y127.166
G1 F1200 X32.025 Y127.091 E12.84043
G1 X33.25 Y126.891 E12.87015
G1 X33.932 Y126.822 E12.88657
G1 X34.537 Y126.779 E12.90109
G1 X34.705 Y126.772 E12.90512
G1 X35.014 Y126.764 E12.91252
G1 X35.567 Y126.758 E12.92577
G1 X74.293 Y126.758 E13.85315
G1 X75.144 Y126.769 E13.87353
G1 X75.522 Y126.781 E13.88259
G1 X75.737 Y126.792 E13.88774
G1 X76.156 Y126.822 E13.8978
G1 X76.459 Y126.85 E13.90509
G1 X77.676 Y127.037 E13.93457
G1 X78.353 Y127.183 E13.95116
G1 X79.228 Y127.413 E13.97282
G1 X79.673 Y127.562 E13.98406
G1 X79.9 Y127.644 E13.98984
G1 X80.491 Y127.879 E14.00507
G1 X80.895 Y128.054 E14.01562
G1 X81.932 Y128.574 E14.0434
G1 X82.078 Y128.658 E14.04743
G1 X82.446 Y128.881 E14.05773
G1 X82.819 Y129.117 E14.06831
G1 X83.741 Y129.774 E14.09542
G1 X83.901 Y129.902 E14.10032
G1 X84.276 Y130.217 E14.11205
G1 X84.597 Y130.5 E14.1223
G1 X85.404 Y131.295 E14.14943
G1 X85.533 Y131.437 E14.15402
G1 X85.834 Y131.784 E14.16502
G1 X86.107 Y132.113 E14.17526
G1 X86.794 Y133.043 E14.20295
G1 X86.904 Y133.211 E14.20776
G1 X87.134 Y133.579 E14.21815
G1 X87.355 Y133.95 E14.22849
G1 X87.913 Y135.027 E14.25754
G1 X87.994 Y135.209 E14.26231
G1 X88.153 Y135.587 E14.27213
G1 X88.309 Y135.979 E14.28223
G1 X88.686 Y137.114 E14.31087
G1 X88.738 Y137.308 E14.31568
G1 X88.836 Y137.704 E14.32545
G1 X88.929 Y138.116 E14.33557
G1 X89.114 Y139.213 E14.36221
G1 X89.137 Y139.415 E14.36708
G1 X89.182 Y139.924 E14.37931
G1 X89.209 Y140.349 E14.38951
G1 X89.223 Y140.612 E14.39582
G1 X89.229 Y140.771 E14.39963
G1 X89.235 Y141.035 E14.40595
G1 X89.24 Y141.493 E14.41692
G1 X89.239 Y189.704 E15.57144
G1 X89.229 Y190.431 E15.58885
G1 X89.177 Y191.334 E15.61052
G1 X89.045 Y192.229 E15.63218
G1 X88.834 Y193.109 E15.65385
G1 X88.547 Y193.968 E15.67554
G1 X88.185 Y194.797 E15.6972
G1 X87.751 Y195.591 E15.71887
G1 X87.249 Y196.344 E15.74054
G1 X86.682 Y197.049 E15.76221
G1 X86.056 Y197.702 E15.78387
G1 X85.374 Y198.297 E15.80555
G1 X84.642 Y198.829 E15.82721
G1 X83.866 Y199.295 E15.84889
G1 X83.052 Y199.69 E15.87056
G1 X82.206 Y200.012 E15.89224
G1 X81.336 Y200.258 E15.91389
G1 X80.446 Y200.426 E15.93558
G1 X79.278 Y200.526 E15.96365
G1 X78.958 Y200.535 E15.97131
G1 X78.67 Y200.539 E15.97821
G1 X31.561 Y200.539 E17.10635
G1 X30.863 Y200.529 E17.12306
G1 X29.96 Y200.476 E17.14472
G1 X29.065 Y200.344 E17.16639
G1 X28.185 Y200.133 E17.18806
G1 X27.327 Y199.845 E17.20973
G1 X26.498 Y199.482 E17.23141
G1 X25.704 Y199.048 E17.25307
G1 X24.952 Y198.545 E17.27474
G1 X24.246 Y197.978 E17.29642
G1 X23.594 Y197.351 E17.31809
G1 X23 Y196.669 E17.33974
G1 X22.468 Y195.937 E17.36141
G1 X22.003 Y195.161 E17.38308
G1 X21.608 Y194.347 E17.40475
G1 X21.286 Y193.501 E17.42642
G1 X21.041 Y192.63 E17.44809
G1 X20.873 Y191.741 E17.46976
G1 X20.774 Y190.583 E17.49759
G1 X20.765 Y190.269 E17.50511
G1 X20.761 Y189.976 E17.51213
G1 X20.761 Y141.56 E18.67156
G1 X20.771 Y140.854 E18.68847
G1 X20.782 Y140.502 E18.6969
G1 X20.792 Y140.296 E18.70184
G1 X20.824 Y139.844 E18.71269
G1 X20.863 Y139.425 E18.72277
G1 X21.04 Y138.257 E18.75106
G1 X21.081 Y138.063 E18.75581
G1 X21.176 Y137.657 E18.76579
G1 X21.281 Y137.244 E18.776
G1 X21.636 Y136.122 E18.80418
G1 X21.716 Y135.912 E18.80956
G1 X21.89 Y135.485 E18.8206
G1 X22.056 Y135.102 E18.8306
G1 X22.594 Y134.035 E18.85922
G1 X22.688 Y133.873 E18.8637
G1 X22.897 Y133.528 E18.87336
G1 X23.124 Y133.17 E18.88351
G1 X23.767 Y132.269 E18.91002
G1 X23.901 Y132.101 E18.91517
G1 X24.251 Y131.684 E18.9282
G1 X24.53 Y131.37 E18.93826
G1 X25.268 Y130.621 E18.96344
G1 X25.411 Y130.49 E18.96809
G1 X25.796 Y130.155 E18.98031
G1 X26.122 Y129.885 E18.99044
G1 X27.045 Y129.204 E19.01791
G1 X27.213 Y129.094 E19.02272
G1 X27.596 Y128.855 E19.03353
G1 X27.96 Y128.639 E19.04367
G1 X28.967 Y128.114 E19.07086
G1 X29.155 Y128.029 E19.0758
G1 X29.592 Y127.844 E19.08717
G1 X29.987 Y127.687 E19.09735
G1 X31.079 Y127.323 E19.12491
G1 X31.259 Y127.274 E19.12938
G1 X31.693 Y127.166 E19.14009
G1 F1500 E12.64009
;MESH:Top Panel.STL
G0 F6000 X37.716 Y141.798
G0 X36.864 Y139.92
G0 X40.549 Y140.471
G0 X41.344 Y140.753
G0 X42.082 Y141.164
G0 X42.74 Y141.695
G0 X43.298 Y142.33
G0 X43.74 Y143.049
G0 X44.056 Y143.834
G0 X44.233 Y144.658
G0 X44.27 Y145.502
G0 X44.162 Y146.34
G0 X44.023 Y146.797
G0 X42.877 Y149.729
;TYPE:WALL-INNER
G1 F1500 E19.14009
G1 F1200 X43.575 Y149.059 E19.16326
G1 X44.15 Y148.283 E19.18639
G1 X44.586 Y147.418 E19.20959
G1 X44.869 Y146.494 E19.23273
G1 X44.986 Y145.573 E19.25496
G1 X44.992 Y145.532 E19.25595
G1 X44.951 Y144.567 E19.27908
G1 X44.748 Y143.622 E19.30223
G1 X44.386 Y142.723 E19.32544
G1 X43.881 Y141.9 E19.34856
G1 X43.24 Y141.172 E19.37179
G1 X42.486 Y140.565 E19.39497
G1 X41.641 Y140.094 E19.41814
G1 X40.732 Y139.771 E19.44124
G1 X39.777 Y139.607 E19.46444
G1 X38.809 Y139.607 E19.48762
G1 X37.854 Y139.771 E19.51083
G1 X36.943 Y140.094 E19.53397
G1 X36.1 Y140.565 E19.5571
G1 X35.346 Y141.172 E19.58028
G1 X34.705 Y141.9 E19.60351
G1 X34.2 Y142.723 E19.62663
G1 X33.838 Y143.621 E19.64982
G1 X33.634 Y144.567 E19.67299
G1 X33.594 Y145.534 E19.69617
G1 X33.717 Y146.492 E19.7193
G1 X33.999 Y147.417 E19.74246
G1 X34.436 Y148.283 E19.76569
G1 X35.011 Y149.059 E19.78881
G1 X35.709 Y149.729 E19.81198
G1 X36.511 Y150.272 E19.83518
G1 X37.392 Y150.669 E19.85832
G1 X38.327 Y150.914 E19.88146
G1 X39.293 Y150.996 E19.90468
G1 X40.257 Y150.914 E19.92785
G1 X41.193 Y150.669 E19.95102
G1 X42.075 Y150.272 E19.97418
G1 X42.877 Y149.729 E19.99738
G0 F6000 X42.574 Y149.354
G1 F1200 X43.213 Y148.741 E20.01858
G1 X43.74 Y148.03 E20.03977
G1 X44.139 Y147.238 E20.06101
G1 X44.398 Y146.392 E20.0822
G1 X44.511 Y145.512 E20.10345
G1 X44.473 Y144.628 E20.12463
G1 X44.287 Y143.763 E20.14582
G1 X43.956 Y142.94 E20.16707
G1 X43.493 Y142.186 E20.18825
G1 X42.907 Y141.52 E20.2095
G1 X42.217 Y140.964 E20.23072
G1 X41.443 Y140.533 E20.25193
G1 X40.61 Y140.237 E20.2731
G1 X39.736 Y140.087 E20.29434
G1 X38.85 Y140.087 E20.31556
G1 X37.976 Y140.237 E20.33679
G1 X37.142 Y140.533 E20.35799
G1 X36.369 Y140.964 E20.37918
G1 X35.679 Y141.52 E20.4004
G1 X35.093 Y142.186 E20.42164
G1 X34.63 Y142.94 E20.44283
G1 X34.299 Y143.762 E20.46405
G1 X34.112 Y144.628 E20.48527
G1 X34.075 Y145.513 E20.50648
G1 X34.188 Y146.391 E20.52768
G1 X34.446 Y147.238 E20.54888
G1 X34.846 Y148.03 E20.57013
G1 X35.373 Y148.741 E20.59133
G1 X36.012 Y149.354 E20.61253
G1 X36.746 Y149.851 E20.63376
G1 X37.553 Y150.215 E20.65496
G1 X38.409 Y150.439 E20.67615
G1 X39.293 Y150.514 E20.69739
G1 X40.175 Y150.439 E20.71859
G1 X41.033 Y150.215 E20.73983
G1 X41.84 Y149.851 E20.76103
G1 X42.574 Y149.354 E20.78226
G0 F6000 X42.271 Y148.979
;TYPE:WALL-OUTER
G1 F1200 X42.852 Y148.423 E20.80151
G1 X43.33 Y147.777 E20.82076
G1 X43.692 Y147.059 E20.84001
G1 X43.927 Y146.29 E20.85927
G1 X44.03 Y145.492 E20.87854
G1 X43.995 Y144.689 E20.89779
G1 X43.826 Y143.904 E20.91702
G1 X43.526 Y143.157 E20.93629
G1 X43.105 Y142.472 E20.95555
G1 X42.574 Y141.868 E20.97481
G1 X41.948 Y141.363 E20.99407
G1 X41.245 Y140.972 E21.01333
G1 X40.488 Y140.703 E21.03257
G1 X39.695 Y140.567 E21.05184
G1 X38.891 Y140.567 E21.07109
G1 X38.098 Y140.703 E21.09036
G1 X37.34 Y140.972 E21.10962
G1 X36.638 Y141.363 E21.12886
G1 X36.012 Y141.868 E21.14812
G1 X35.481 Y142.472 E21.16738
G1 X35.06 Y143.157 E21.18664
G1 X34.76 Y143.903 E21.20589
G1 X34.59 Y144.689 E21.22515
G1 X34.556 Y145.492 E21.2444
G1 X34.659 Y146.29 E21.26366
G1 X34.893 Y147.059 E21.28291
G1 X35.256 Y147.777 E21.30218
G1 X35.734 Y148.423 E21.32142
