;FLAVOR:Marlin
;TIME:10729
;Filament used: 5.9334m
;Layer height: 0.16
;MINX:24
;MINY:15.445
;MINZ:0.2
;MAXX:194.048
;MAXY:191.762
;MAXZ:18.45
;Generated with Cura_SteamEngine 4.8.0
M140 S60
M105
M190 S60
M104 S200
M105
M109 S200
M82 ;absolute extrusion mode
; Ender 3 Custom Start G-code
G92 E0 ; Reset Extruder
G28 ; Home all axes
G1 Z2.0 F3000 ; Move Z Axis up little to prevent scratching of Heat Bed
G1 X0.1 Y20 Z0.3 F5000.0 ; Move to start position
G1 X0.1 Y200.0 Z0.3 F1500.0 E15 ; Draw the first line
G1 X0.4 Y200.0 Z0.3 F5000.0 ; Move to side a little
G1 X0.4 Y20 Z0.3 F1500.0 E30 ; Draw the second line
G92 E0 ; Reset Extruder
G1 Z2.0 F3000 ; Move Z Axis up little to prevent scratching of Heat Bed
G1 X5 Y20 Z0.3 F5000.0 ; Move over to prevent blob squish
G92 E0
G92 E0
G1 F1500 E-6.5
;LAYER_COUNT:22
;LAYER:0
M107
G0 F6000 X33.345 Y43.55 Z0.2
;TYPE:SKIRT
G1 F1500 E0
G1 F1200 X33.844 Y43.187 E0.02052
G1 X34.089 Y43.019 E0.0304
G1 X34.355 Y42.842 E0.04103
G1 X34.574 Y42.701 E0.04969
G1 X35.154 Y42.352 E0.07221
G1 X35.204 Y42.324 E0.07411
G1 X35.992 Y41.924 E0.10351
G1 X36.414 Y41.734 E0.1189
G1 X36.743 Y41.592 E0.13082
G1 X37.619 Y41.257 E0.16201
G1 X38.219 Y41.075 E0.18287
G1 X38.451 Y41.012 E0.19086
G1 X38.732 Y40.94 E0.20051
G1 X39.036 Y40.866 E0.21092
G1 X40.118 Y40.66 E0.24755
G1 X40.636 Y40.598 E0.2649
G1 X41.16 Y40.551 E0.2824
G1 X41.52 Y40.526 E0.2944
G1 X42.142 Y40.501 E0.31511
G1 X42.91 Y40.492 E0.34065
G1 X67.053 Y40.492 E1.14365
G1 X67.947 Y40.504 E1.17339
G1 X68.562 Y40.531 E1.19386
G1 X69.1 Y40.572 E1.21181
G1 X69.381 Y40.599 E1.2212
G1 X70.23 Y40.714 E1.24969
G1 X70.287 Y40.724 E1.25162
G1 X71.054 Y40.887 E1.2777
G1 X71.503 Y41.002 E1.29311
G1 X71.807 Y41.085 E1.3036
G1 X73.122 Y41.535 E1.34982
G1 X73.315 Y41.615 E1.35677
G1 X73.681 Y41.775 E1.37006
G1 X74.024 Y41.932 E1.3826
G1 X74.86 Y42.358 E1.41381
G1 X75.39 Y42.678 E1.4344
G1 X75.594 Y42.809 E1.44247
G1 X75.858 Y42.984 E1.453
G1 X76.133 Y43.172 E1.46408
G1 X76.673 Y43.566 E1.48631
G1 X77.354 Y44.138 E1.51589
G1 X77.556 Y44.322 E1.52498
G1 X77.815 Y44.566 E1.53682
G1 X78.028 Y44.773 E1.5467
G1 X78.672 Y45.454 E1.57787
G1 X78.973 Y45.816 E1.59353
G1 X79.097 Y45.972 E1.60016
G1 X79.34 Y46.289 E1.61344
G1 X79.573 Y46.605 E1.6265
G1 X80.096 Y47.383 E1.65768
G1 X80.409 Y47.927 E1.67855
G1 X80.553 Y48.195 E1.68867
G1 X80.694 Y48.466 E1.69883
G1 X80.822 Y48.721 E1.70832
G1 X81.207 Y49.577 E1.73954
G1 X81.377 Y50.032 E1.7557
G1 X81.444 Y50.224 E1.76246
G1 X81.577 Y50.631 E1.7767
G1 X81.688 Y50.994 E1.78933
G1 X81.955 Y52.054 E1.82568
G1 X82.044 Y52.545 E1.84228
G1 X82.114 Y53.013 E1.85802
G1 X82.156 Y53.326 E1.86852
G1 X82.241 Y54.26 E1.89972
G1 X82.254 Y54.869 E1.91998
G1 X82.252 Y55.144 E1.92912
G1 X82.244 Y55.487 E1.94053
G1 X82.232 Y55.799 E1.95092
G1 X82.156 Y56.734 E1.98212
G1 X82.076 Y57.266 E2.00001
G1 X82.031 Y57.524 E2.00872
G1 X81.973 Y57.834 E2.01921
G1 X81.913 Y58.128 E2.02919
G1 X81.701 Y58.987 E2.05862
G1 X81.482 Y59.668 E2.08241
G1 X81.398 Y59.903 E2.09071
G1 X81.26 Y60.27 E2.10376
G1 X81.131 Y60.594 E2.11535
G1 X80.747 Y61.45 E2.14656
G1 X80.477 Y61.956 E2.16563
G1 X80.243 Y62.362 E2.18122
G1 X80.075 Y62.643 E2.19211
G1 X79.303 Y63.769 E2.23752
G1 X79.146 Y63.97 E2.246
G1 X78.794 Y64.399 E2.26446
G1 X78.562 Y64.667 E2.27625
G1 X77.918 Y65.349 E2.30744
G1 X77.5 Y65.736 E2.32639
G1 X77.288 Y65.922 E2.33577
G1 X77.083 Y66.097 E2.34474
G1 X76.865 Y66.279 E2.35418
G1 X76.217 Y66.78 E2.38142
G1 X75.584 Y67.203 E2.40675
G1 X75.371 Y67.335 E2.41508
G1 X75.049 Y67.527 E2.42755
G1 X74.763 Y67.691 E2.43852
G1 X73.583 Y68.277 E2.48234
G1 X73.406 Y68.352 E2.48873
G1 X72.96 Y68.53 E2.5047
G1 X72.609 Y68.661 E2.51716
G1 X71.717 Y68.951 E2.54836
G1 X71.149 Y69.093 E2.56783
G1 X70.807 Y69.169 E2.57948
G1 X70.448 Y69.243 E2.59168
G1 X70.208 Y69.288 E2.5998
G1 X68.839 Y69.456 E2.64567
G1 X68.622 Y69.469 E2.6529
G1 X68.239 Y69.486 E2.66565
G1 X67.879 Y69.495 E2.67763
G1 X66.941 Y69.478 E2.70883
G1 X66.33 Y69.424 E2.72924
G1 X65.53 Y69.331 E2.75602
G1 X62.909 Y69.06 E2.84366
G1 X60.408 Y68.872 E2.92708
G1 X57.891 Y68.754 E3.01089
G1 X55.366 Y68.708 E3.09488
G1 X52.878 Y68.732 E3.17764
G1 X50.356 Y68.829 E3.26158
G1 X47.859 Y68.995 E3.34482
G1 X44.463 Y69.331 E3.45832
G1 X43.655 Y69.425 E3.48538
G1 X42.719 Y69.494 E3.51659
G1 X42.084 Y69.495 E3.53771
G1 X41.601 Y69.479 E3.55378
G1 X41.25 Y69.461 E3.56547
G1 X40.316 Y69.373 E3.59668
G1 X39.812 Y69.291 E3.61366
G1 X39.585 Y69.249 E3.62134
G1 X39.223 Y69.176 E3.63362
G1 X38.882 Y69.101 E3.64523
G1 X37.976 Y68.861 E3.67641
G1 X37.402 Y68.665 E3.69658
G1 X37.115 Y68.558 E3.70677
G1 X36.747 Y68.413 E3.71992
G1 X36.496 Y68.309 E3.72896
G1 X35.382 Y67.772 E3.77009
G1 X35.194 Y67.668 E3.77724
G1 X34.725 Y67.393 E3.79532
G1 X34.399 Y67.191 E3.80808
G1 X33.624 Y66.664 E3.83925
G1 X33.185 Y66.32 E3.8578
G1 X32.989 Y66.158 E3.86626
G1 X32.739 Y65.945 E3.87718
G1 X32.493 Y65.729 E3.88807
G1 X31.786 Y65.05 E3.92067
G1 X31.324 Y64.536 E3.94366
G1 X31.024 Y64.177 E3.95922
G1 X30.825 Y63.931 E3.96974
G1 X30.267 Y63.178 E4.00091
G1 X29.991 Y62.749 E4.01788
G1 X29.848 Y62.515 E4.027
G1 X29.647 Y62.172 E4.04022
G1 X29.494 Y61.9 E4.0506
G1 X29.069 Y61.064 E4.0818
G1 X28.849 Y60.544 E4.10058
G1 X28.748 Y60.288 E4.10973
G1 X28.654 Y60.042 E4.11849
G1 X28.549 Y59.756 E4.12862
G1 X28.264 Y58.863 E4.1598
G1 X28.117 Y58.26 E4.18044
G1 X28.05 Y57.946 E4.19112
G1 X27.965 Y57.503 E4.20612
G1 X27.917 Y57.222 E4.21561
G1 X27.771 Y55.854 E4.26136
G1 X27.76 Y55.604 E4.26969
G1 X27.749 Y55.22 E4.28246
G1 X27.746 Y54.891 E4.29341
G1 X27.778 Y53.954 E4.32459
G1 X27.841 Y53.345 E4.34495
G1 X27.878 Y53.066 E4.35431
G1 X27.959 Y52.527 E4.37244
G1 X28.142 Y51.607 E4.40364
G1 X28.316 Y50.973 E4.42551
G1 X28.388 Y50.739 E4.43365
G1 X28.483 Y50.447 E4.44386
G1 X28.593 Y50.122 E4.45528
G1 X28.931 Y49.248 E4.48644
G1 X29.14 Y48.796 E4.50301
G1 X29.228 Y48.617 E4.50964
G1 X29.415 Y48.255 E4.52319
G1 X29.597 Y47.917 E4.53596
G1 X30.076 Y47.111 E4.56714
G1 X30.41 Y46.629 E4.58665
G1 X30.572 Y46.408 E4.59576
G1 X30.792 Y46.118 E4.60787
G1 X30.993 Y45.862 E4.61869
G1 X31.918 Y44.826 E4.66489
G1 X32.071 Y44.675 E4.67204
G1 X32.361 Y44.399 E4.68535
G1 X32.628 Y44.154 E4.69741
G1 X33.345 Y43.55 E4.72859
G0 F6000 X33.603 Y43.856
G1 F1200 X34.07 Y43.517 E4.74778
G1 X34.315 Y43.349 E4.75766
G1 X34.572 Y43.178 E4.76793
G1 X34.791 Y43.037 E4.77659
G1 X35.35 Y42.701 E4.79828
G1 X35.4 Y42.673 E4.80019
G1 X36.159 Y42.287 E4.82851
G1 X36.572 Y42.101 E4.84358
G1 X36.901 Y41.959 E4.8555
G1 X37.762 Y41.631 E4.88614
G1 X38.324 Y41.461 E4.90567
G1 X38.556 Y41.398 E4.91366
G1 X38.827 Y41.329 E4.92297
G1 X39.131 Y41.255 E4.93337
G1 X40.173 Y41.056 E4.96866
G1 X40.674 Y40.996 E4.98544
G1 X40.915 Y40.973 E4.99349
G1 X41.188 Y40.95 E5.0026
G1 X41.548 Y40.925 E5.0146
G1 X42.147 Y40.901 E5.03454
G1 X42.91 Y40.892 E5.05992
G1 X67.053 Y40.892 E5.86292
G1 X67.941 Y40.904 E5.89246
G1 X68.533 Y40.93 E5.91217
G1 X68.8 Y40.949 E5.92107
G1 X69.062 Y40.971 E5.92982
G1 X69.343 Y40.998 E5.93921
G1 X70.161 Y41.108 E5.96666
G1 X70.218 Y41.118 E5.96858
G1 X70.957 Y41.275 E5.99371
G1 X71.398 Y41.388 E6.00885
G1 X71.702 Y41.471 E6.01933
G1 X72.969 Y41.905 E6.06388
G1 X73.162 Y41.985 E6.07083
G1 X73.515 Y42.139 E6.08364
G1 X73.858 Y42.296 E6.09618
G1 X74.677 Y42.715 E6.12678
G1 X75.174 Y43.015 E6.14609
G1 X75.378 Y43.146 E6.15415
G1 X75.632 Y43.314 E6.16428
G1 X75.907 Y43.502 E6.17536
G1 X76.428 Y43.882 E6.19681
G1 X77.085 Y44.434 E6.22535
G1 X77.287 Y44.618 E6.23444
G1 X77.537 Y44.852 E6.24583
G1 X77.75 Y45.059 E6.2557
G1 X78.66 Y46.065 E6.30082
G1 X78.784 Y46.221 E6.30745
G1 X79.018 Y46.526 E6.32024
G1 X79.251 Y46.842 E6.33329
G1 X79.764 Y47.606 E6.3639
G1 X80.056 Y48.116 E6.38345
G1 X80.2 Y48.384 E6.39357
G1 X80.336 Y48.646 E6.40339
G1 X80.464 Y48.901 E6.41288
G1 X80.999 Y50.164 E6.4585
G1 X81.066 Y50.356 E6.46526
G1 X81.195 Y50.748 E6.47899
G1 X81.306 Y51.111 E6.49161
G1 X81.563 Y52.132 E6.52663
G1 X81.648 Y52.607 E6.54268
G1 X81.718 Y53.066 E6.55812
G1 X81.76 Y53.379 E6.56863
G1 X81.843 Y54.296 E6.59925
G1 X81.854 Y54.866 E6.61821
G1 X81.852 Y55.141 E6.62736
G1 X81.844 Y55.471 E6.63834
G1 X81.832 Y55.783 E6.64872
G1 X81.757 Y56.701 E6.67936
G1 X81.682 Y57.197 E6.69604
G1 X81.637 Y57.455 E6.70475
G1 X81.581 Y57.754 E6.71487
G1 X81.521 Y58.048 E6.72485
G1 X81.317 Y58.875 E6.75318
G1 X81.106 Y59.534 E6.77619
G1 X81.022 Y59.769 E6.7845
G1 X80.888 Y60.122 E6.79705
G1 X80.759 Y60.446 E6.80865
G1 X80.382 Y61.286 E6.83928
G1 X80.129 Y61.758 E6.85709
G1 X79.9 Y62.156 E6.87236
G1 X79.732 Y62.437 E6.88325
G1 X78.988 Y63.523 E6.92703
G1 X78.831 Y63.724 E6.93552
G1 X78.491 Y64.137 E6.95331
G1 X78.259 Y64.405 E6.9651
G1 X77.627 Y65.074 E6.99571
G1 X77.236 Y65.435 E7.01341
G1 X77.024 Y65.621 E7.02279
G1 X76.826 Y65.79 E7.03145
G1 X76.608 Y65.972 E7.04089
G1 X75.984 Y66.455 E7.06714
G1 X75.374 Y66.863 E7.09155
G1 X75.161 Y66.995 E7.09988
G1 X74.85 Y67.18 E7.11192
G1 X74.564 Y67.344 E7.12288
G1 X73.427 Y67.909 E7.16511
G1 X73.25 Y67.984 E7.1715
G1 X72.82 Y68.155 E7.18689
G1 X72.469 Y68.286 E7.19936
G1 X71.594 Y68.57 E7.22995
G1 X71.062 Y68.703 E7.24819
G1 X70.72 Y68.779 E7.25984
G1 X70.374 Y68.849 E7.27159
G1 X70.134 Y68.894 E7.27971
G1 X68.815 Y69.057 E7.32391
G1 X68.598 Y69.07 E7.33114
G1 X68.229 Y69.086 E7.34343
G1 X67.869 Y69.095 E7.3554
G1 X66.948 Y69.078 E7.38604
G1 X66.376 Y69.027 E7.40514
G1 X65.539 Y68.929 E7.43317
G1 X62.943 Y68.661 E7.51997
G1 X60.423 Y68.472 E7.60402
G1 X57.916 Y68.354 E7.6875
G1 X55.369 Y68.308 E7.77223
G1 X52.86 Y68.332 E7.85568
G1 X50.35 Y68.428 E7.93922
G1 X47.794 Y68.599 E8.02443
G1 X44.485 Y68.926 E8.13502
G1 X43.608 Y69.028 E8.16439
G1 X42.69 Y69.095 E8.195
G1 X42.095 Y69.095 E8.21479
G1 X41.875 Y69.089 E8.22211
G1 X41.621 Y69.079 E8.23056
G1 X41.27 Y69.061 E8.24225
G1 X40.354 Y68.974 E8.27286
G1 X39.884 Y68.898 E8.28869
G1 X39.657 Y68.856 E8.29637
G1 X39.309 Y68.786 E8.30818
G1 X38.968 Y68.711 E8.31979
G1 X38.078 Y68.474 E8.35042
G1 X37.542 Y68.29 E8.36927
G1 X37.255 Y68.183 E8.37946
G1 X36.9 Y68.044 E8.39214
G1 X36.649 Y67.94 E8.40118
G1 X35.576 Y67.422 E8.44081
G1 X35.388 Y67.318 E8.44795
G1 X34.936 Y67.053 E8.46538
G1 X34.61 Y66.851 E8.47813
G1 X33.849 Y66.333 E8.50875
G1 X33.44 Y66.011 E8.52607
G1 X33.244 Y65.849 E8.53452
G1 X33.003 Y65.644 E8.54505
G1 X32.757 Y65.428 E8.55593
G1 X32.075 Y64.773 E8.58739
G1 X31.629 Y64.278 E8.60955
G1 X31.335 Y63.926 E8.6248
G1 X31.136 Y63.68 E8.63532
G1 X30.588 Y62.939 E8.66598
G1 X30.332 Y62.54 E8.68174
G1 X30.189 Y62.306 E8.69087
G1 X29.995 Y61.976 E8.7036
G1 X29.842 Y61.704 E8.71398
G1 X29.426 Y60.883 E8.74459
G1 X29.221 Y60.397 E8.76213
G1 X29.029 Y59.904 E8.77973
G1 X28.924 Y59.618 E8.78986
G1 X28.645 Y58.741 E8.82047
G1 X28.508 Y58.177 E8.83978
G1 X28.441 Y57.863 E8.85046
G1 X28.359 Y57.436 E8.86492
G1 X28.311 Y57.155 E8.8744
G1 X28.17 Y55.836 E8.91852
G1 X28.159 Y55.586 E8.92684
G1 X28.149 Y55.217 E8.93912
G1 X28.146 Y54.888 E8.95006
G1 X28.178 Y53.968 E8.98068
G1 X28.238 Y53.397 E8.99978
G1 X28.307 Y52.892 E9.01673
G1 X28.354 Y52.588 E9.02696
G1 X28.535 Y51.686 E9.05756
G1 X28.699 Y51.091 E9.07809
G1 X28.771 Y50.857 E9.08623
G1 X28.862 Y50.576 E9.09605
G1 X28.972 Y50.251 E9.10747
G1 X29.304 Y49.392 E9.1381
G1 X29.499 Y48.972 E9.1535
G1 X29.587 Y48.793 E9.16013
G1 X29.767 Y48.445 E9.17316
G1 X29.949 Y48.107 E9.18593
G1 X30.42 Y47.316 E9.21655
G1 X30.733 Y46.865 E9.23481
G1 X30.895 Y46.644 E9.24392
G1 X31.107 Y46.365 E9.25558
G1 X31.308 Y46.109 E9.2664
G1 X32.199 Y45.111 E9.3109
G1 X32.352 Y44.96 E9.31805
G1 X32.631 Y44.694 E9.33087
G1 X32.898 Y44.449 E9.34292
G1 X33.603 Y43.856 E9.37356
G0 F6000 X33.861 Y44.163
G1 F1200 X34.297 Y43.847 E9.39147
G1 X34.542 Y43.679 E9.40135
G1 X34.788 Y43.515 E9.41119
G1 X35.007 Y43.374 E9.41985
G1 X35.545 Y43.05 E9.44074
G1 X35.595 Y43.022 E9.44265
G1 X36.326 Y42.651 E9.46991
G1 X36.731 Y42.468 E9.48469
G1 X37.06 Y42.326 E9.49661
G1 X37.904 Y42.005 E9.52664
G1 X38.429 Y41.847 E9.54488
G1 X38.661 Y41.784 E9.55287
G1 X38.922 Y41.717 E9.56184
G1 X39.226 Y41.643 E9.57224
G1 X40.228 Y41.452 E9.60617
G1 X40.712 Y41.394 E9.62238
G1 X40.953 Y41.371 E9.63044
G1 X41.215 Y41.35 E9.63918
G1 X41.575 Y41.325 E9.65118
G1 X42.152 Y41.301 E9.67039
G1 X42.91 Y41.292 E9.6956
G1 X67.053 Y41.292 E10.4986
G1 X67.935 Y41.304 E10.52794
G1 X68.505 Y41.329 E10.54691
G1 X68.772 Y41.348 E10.55582
G1 X69.024 Y41.369 E10.56423
G1 X69.305 Y41.396 E10.57362
G1 X70.092 Y41.502 E10.60003
G1 X70.149 Y41.512 E10.60195
G1 X70.86 Y41.664 E10.62614
G1 X71.293 Y41.774 E10.641
G1 X71.597 Y41.857 E10.65148
G1 X72.816 Y42.274 E10.69433
G1 X73.009 Y42.354 E10.70128
G1 X73.348 Y42.502 E10.71358
G1 X73.691 Y42.659 E10.72613
G1 X74.495 Y43.071 E10.75617
G1 X74.957 Y43.351 E10.77414
G1 X75.161 Y43.482 E10.78221
G1 X75.406 Y43.645 E10.79199
G1 X75.681 Y43.833 E10.80307
G1 X76.184 Y44.199 E10.82376
G1 X76.816 Y44.729 E10.8512
G1 X77.018 Y44.913 E10.86028
G1 X77.258 Y45.139 E10.87125
G1 X77.471 Y45.346 E10.88113
G1 X78.347 Y46.314 E10.92455
G1 X78.471 Y46.47 E10.93118
G1 X78.696 Y46.764 E10.94349
G1 X78.929 Y47.08 E10.95655
G1 X79.432 Y47.83 E10.98658
G1 X79.704 Y48.305 E11.00479
G1 X79.848 Y48.573 E11.01491
G1 X79.979 Y48.825 E11.02436
G1 X80.107 Y49.08 E11.03385
G1 X80.621 Y50.295 E11.07772
G1 X80.688 Y50.487 E11.08449
G1 X80.812 Y50.865 E11.09772
G1 X80.923 Y51.228 E11.11034
G1 X81.171 Y52.211 E11.14406
G1 X81.253 Y52.669 E11.15954
G1 X81.321 Y53.119 E11.17468
G1 X81.363 Y53.432 E11.18518
G1 X81.444 Y54.332 E11.21523
G1 X81.454 Y54.863 E11.2329
G1 X81.452 Y55.138 E11.24205
G1 X81.444 Y55.456 E11.25263
G1 X81.432 Y55.768 E11.26301
G1 X81.358 Y56.668 E11.29305
G1 X81.288 Y57.129 E11.30855
G1 X81.243 Y57.387 E11.31726
G1 X81.189 Y57.674 E11.32698
G1 X81.129 Y57.968 E11.33696
G1 X80.933 Y58.764 E11.36422
G1 X80.729 Y59.399 E11.38641
G1 X80.645 Y59.634 E11.39471
G1 X80.517 Y59.974 E11.40679
G1 X80.388 Y60.298 E11.41839
G1 X80.017 Y61.121 E11.44842
G1 X79.781 Y61.561 E11.46502
G1 X79.557 Y61.951 E11.47998
G1 X79.389 Y62.232 E11.49087
G1 X78.672 Y63.277 E11.53302
G1 X78.515 Y63.478 E11.5415
G1 X78.189 Y63.875 E11.55859
G1 X77.957 Y64.143 E11.57038
G1 X77.336 Y64.799 E11.60042
G1 X76.972 Y65.134 E11.61688
G1 X76.76 Y65.32 E11.62626
G1 X76.57 Y65.483 E11.63458
G1 X76.352 Y65.665 E11.64403
G1 X75.75 Y66.131 E11.66935
G1 X75.163 Y66.523 E11.69283
G1 X74.95 Y66.655 E11.70116
G1 X74.651 Y66.833 E11.71274
G1 X74.365 Y66.997 E11.7237
G1 X73.271 Y67.541 E11.76434
G1 X73.094 Y67.616 E11.77073
G1 X72.681 Y67.78 E11.78551
G1 X72.33 Y67.911 E11.79797
G1 X71.47 Y68.189 E11.82803
G1 X70.976 Y68.312 E11.84497
G1 X70.634 Y68.388 E11.85662
G1 X70.301 Y68.456 E11.86792
G1 X70.061 Y68.501 E11.87604
G1 X68.791 Y68.658 E11.91861
G1 X68.574 Y68.671 E11.92584
G1 X68.219 Y68.686 E11.93765
G1 X67.859 Y68.695 E11.94963
G1 X66.956 Y68.677 E11.97967
G1 X66.423 Y68.629 E11.99747
G1 X65.633 Y68.537 E12.02392
G1 X62.978 Y68.262 E12.1127
G1 X60.471 Y68.074 E12.19632
G1 X57.907 Y67.954 E12.28169
G1 X55.373 Y67.908 E12.36599
G1 X52.875 Y67.932 E12.44907
G1 X50.273 Y68.032 E12.53568
G1 X47.789 Y68.197 E12.61848
G1 X44.463 Y68.526 E12.72964
G1 X43.562 Y68.631 E12.75981
G1 X42.661 Y68.695 E12.78986
G1 X42.106 Y68.695 E12.80832
G1 X41.642 Y68.68 E12.82376
G1 X41.291 Y68.662 E12.83545
G1 X39.957 Y68.505 E12.88012
G1 X39.73 Y68.463 E12.8878
G1 X39.395 Y68.395 E12.89917
G1 X39.054 Y68.32 E12.91078
G1 X38.181 Y68.087 E12.94083
G1 X37.682 Y67.915 E12.95839
G1 X37.395 Y67.808 E12.96858
G1 X37.054 Y67.674 E12.98076
G1 X36.803 Y67.57 E12.9898
G1 X35.77 Y67.072 E13.02794
G1 X35.582 Y66.968 E13.03509
G1 X35.147 Y66.713 E13.05186
G1 X34.821 Y66.511 E13.06461
G1 X34.075 Y66.002 E13.09465
G1 X33.695 Y65.703 E13.11073
G1 X33.499 Y65.541 E13.11919
G1 X33.267 Y65.344 E13.12931
G1 X33.021 Y65.128 E13.1402
G1 X32.364 Y64.496 E13.17052
G1 X31.935 Y64.02 E13.19184
G1 X31.646 Y63.674 E13.20683
G1 X31.447 Y63.428 E13.21735
G1 X30.674 Y62.332 E13.26196
G1 X30.531 Y62.098 E13.27108
G1 X30.344 Y61.78 E13.28335
G1 X30.191 Y61.508 E13.29373
G1 X29.783 Y60.702 E13.32378
G1 X29.593 Y60.25 E13.34009
G1 X29.492 Y59.994 E13.34924
G1 X29.405 Y59.766 E13.35736
G1 X29.3 Y59.48 E13.36749
