;FLAVOR:Marlin
;TIME:5422
;Filament used: 3.14523m
;Layer height: 0.16
;MINX:82.24
;MINY:64.72
;MINZ:0.2
;MAXX:131.758
;MAXY:141.687
;MAXZ:13.4
;Generated with Cura_SteamEngine 4.8.0
M140 S60
M105
M190 S60
M104 S200
M105
M109 S200
M82 ;absolute extrusion mode
; Ender 3 Custom Start G-code
G92 E0 ; Reset Extruder
G28 ; Home all axes
G1 Z2.0 F3000 ; Move Z Axis up little to prevent scratching of Heat Bed
G1 X0.1 Y20 Z0.3 F5000.0 ; Move to start position
G1 X0.1 Y200.0 Z0.3 F1500.0 E15 ; Draw the first line
G1 X0.4 Y200.0 Z0.3 F5000.0 ; Move to side a little
G1 X0.4 Y20 Z0.3 F1500.0 E30 ; Draw the second line
G92 E0 ; Reset Extruder
G1 Z2.0 F3000 ; Move Z Axis up little to prevent scratching of Heat Bed
G1 X5 Y20 Z0.3 F5000.0 ; Move over to prevent blob squish
G92 E0
G92 E0
G1 F1500 E-6.5
;LAYER_COUNT:74
;LAYER:0
M107
G0 F6000 X86.263 Y69.407 Z0.2
;TYPE:SKIRT
G1 F1500 E0
G1 F1200 X86.402 Y69.244 E0.00712
G1 X87.041 Y68.557 E0.03833
G1 X87.456 Y68.168 E0.05725
G1 X87.776 Y67.883 E0.0715
G1 X88.502 Y67.289 E0.1027
G1 X88.957 Y66.966 E0.12126
G1 X89.021 Y66.923 E0.12382
G1 X89.558 Y66.585 E0.14493
G1 X89.739 Y66.478 E0.15192
G1 X90.566 Y66.035 E0.18313
G1 X91.104 Y65.794 E0.20273
G1 X91.375 Y65.681 E0.2125
G1 X92.504 Y65.281 E0.25234
G1 X92.606 Y65.251 E0.25587
G1 X93.287 Y65.074 E0.27928
G1 X93.504 Y65.025 E0.28667
G1 X94.795 Y64.813 E0.33019
G1 X94.911 Y64.801 E0.33407
G1 X95.388 Y64.763 E0.34998
G1 X95.606 Y64.75 E0.35725
G1 X95.916 Y64.735 E0.36757
G1 X96.171 Y64.727 E0.37605
G1 X96.707 Y64.72 E0.39388
G1 X117.053 Y64.72 E1.07059
G1 X117.915 Y64.731 E1.09927
G1 X118.508 Y64.756 E1.11901
G1 X118.713 Y64.77 E1.12584
G1 X119.646 Y64.873 E1.15706
G1 X120.31 Y64.997 E1.17953
G1 X120.759 Y65.095 E1.19481
G1 X121.666 Y65.334 E1.22601
G1 X122.337 Y65.566 E1.24962
G1 X122.859 Y65.778 E1.26836
G1 X123.068 Y65.869 E1.27595
G1 X124.169 Y66.423 E1.31694
G1 X124.615 Y66.691 E1.33425
G1 X124.819 Y66.82 E1.34227
G1 X125.59 Y67.354 E1.37347
G1 X126.055 Y67.728 E1.39331
G1 X126.213 Y67.862 E1.40021
G1 X126.902 Y68.498 E1.43139
G1 X127.324 Y68.948 E1.45191
G1 X127.609 Y69.269 E1.46619
G1 X128.201 Y69.996 E1.49737
G1 X128.514 Y70.437 E1.51536
G1 X128.557 Y70.501 E1.51792
G1 X128.886 Y71.022 E1.53842
G1 X128.994 Y71.204 E1.54546
G1 X129.438 Y72.031 E1.57668
G1 X129.681 Y72.571 E1.59637
G1 X129.794 Y72.841 E1.60611
G1 X130.119 Y73.721 E1.63731
G1 X130.313 Y74.398 E1.66073
G1 X130.37 Y74.624 E1.66848
G1 X130.56 Y75.542 E1.69966
G1 X130.649 Y76.217 E1.72231
G1 X130.698 Y76.706 E1.73865
G1 X130.752 Y77.644 E1.7699
G1 X130.76 Y78.287 E1.79129
G1 X130.76 Y114.69 E3.00206
G1 X130.797 Y117.298 E3.08881
G1 X130.904 Y119.819 E3.17273
G1 X131.081 Y122.314 E3.25593
G1 X131.326 Y124.784 E3.33848
G1 X131.483 Y125.973 E3.37837
G1 X131.499 Y126.148 E3.38422
G1 X131.663 Y127.473 E3.42862
G1 X131.74 Y128.435 E3.46072
G1 X131.752 Y128.837 E3.4741
G1 X131.758 Y129.322 E3.49023
G1 X131.758 Y130.039 E3.51408
G1 X131.75 Y130.794 E3.53919
G1 X131.7 Y131.73 E3.57037
G1 X131.571 Y132.659 E3.60156
G1 X131.363 Y133.573 E3.63274
G1 X131.078 Y134.467 E3.66395
G1 X130.717 Y135.333 E3.69515
G1 X130.284 Y136.165 E3.72635
G1 X129.782 Y136.957 E3.75754
G1 X129.214 Y137.703 E3.78872
G1 X128.585 Y138.399 E3.81992
G1 X127.899 Y139.038 E3.85111
G1 X127.161 Y139.617 E3.8823
G1 X126.376 Y140.13 E3.91349
G1 X125.55 Y140.575 E3.9447
G1 X124.69 Y140.948 E3.97588
G1 X123.8 Y141.246 E4.0071
G1 X122.889 Y141.467 E4.03827
G1 X121.962 Y141.61 E4.06947
G1 X121.085 Y141.672 E4.09871
G1 X120.822 Y141.68 E4.10746
G1 X120.284 Y141.687 E4.12536
G1 X93.774 Y141.686 E5.00709
G1 X93.076 Y141.675 E5.0303
G1 X92.139 Y141.62 E5.06152
G1 X91.211 Y141.486 E5.09271
G1 X90.298 Y141.273 E5.12389
G1 X89.406 Y140.983 E5.15509
G1 X88.542 Y140.618 E5.18628
G1 X87.712 Y140.181 E5.21748
G1 X86.923 Y139.675 E5.24866
G1 X86.179 Y139.103 E5.27987
G1 X85.487 Y138.47 E5.31106
G1 X84.851 Y137.781 E5.34225
G1 X84.276 Y137.039 E5.37347
G1 X83.767 Y136.252 E5.40464
G1 X83.326 Y135.424 E5.43585
G1 X82.958 Y134.562 E5.46702
G1 X82.665 Y133.671 E5.49822
G1 X82.448 Y132.758 E5.52943
G1 X82.31 Y131.831 E5.5606
G1 X82.253 Y130.975 E5.58913
G1 X82.244 Y130.644 E5.60015
G1 X82.24 Y130.345 E5.61009
G1 X82.241 Y129.337 E5.64362
G1 X82.252 Y128.645 E5.66664
G1 X82.34 Y127.425 E5.70732
G1 X82.545 Y125.824 E5.76101
G1 X82.828 Y123.264 E5.84667
G1 X83.033 Y120.76 E5.93023
G1 X83.167 Y118.279 E6.01287
G1 X83.239 Y114.614 E6.13479
G1 X83.241 Y78.258 E7.344
G1 X83.251 Y77.555 E7.36738
G1 X83.278 Y76.923 E7.38842
G1 X83.292 Y76.728 E7.39492
G1 X83.399 Y75.797 E7.42609
G1 X83.515 Y75.178 E7.44704
G1 X83.612 Y74.732 E7.46222
G1 X83.85 Y73.825 E7.49341
G1 X84.076 Y73.169 E7.51649
G1 X84.28 Y72.661 E7.53469
G1 X84.37 Y72.452 E7.54226
G1 X84.777 Y71.608 E7.57343
G1 X85.125 Y71.006 E7.59655
G1 X85.285 Y70.748 E7.60665
G1 X85.813 Y69.972 E7.63787
G1 X86.263 Y69.407 E7.66189
G0 F6000 X86.567 Y69.667
G1 F1200 X86.706 Y69.504 E7.66902
G1 X87.334 Y68.83 E7.69966
G1 X87.722 Y68.466 E7.71735
G1 X88.042 Y68.181 E7.73161
G1 X88.756 Y67.599 E7.76224
G1 X89.18 Y67.298 E7.77954
G1 X89.244 Y67.255 E7.7821
G1 X89.762 Y66.929 E7.80246
G1 X89.943 Y66.822 E7.80945
G1 X90.755 Y66.389 E7.84006
G1 X91.258 Y66.163 E7.8584
G1 X91.529 Y66.05 E7.86817
G1 X92.617 Y65.665 E7.90655
G1 X92.719 Y65.635 E7.91009
G1 X93.375 Y65.464 E7.93264
G1 X93.592 Y65.415 E7.94004
G1 X94.836 Y65.211 E7.98196
G1 X94.952 Y65.199 E7.98584
G1 X95.412 Y65.162 E8.00119
G1 X95.63 Y65.149 E8.00846
G1 X95.929 Y65.135 E8.01841
G1 X96.184 Y65.127 E8.0269
G1 X96.707 Y65.12 E8.04429
G1 X117.053 Y65.12 E8.721
G1 X117.909 Y65.131 E8.74948
G1 X118.481 Y65.155 E8.76852
G1 X118.686 Y65.169 E8.77535
G1 X119.601 Y65.271 E8.80597
G1 X120.224 Y65.388 E8.82706
G1 X120.673 Y65.486 E8.84234
G1 X121.563 Y65.721 E8.87296
G1 X122.194 Y65.939 E8.89516
G1 X122.7 Y66.144 E8.91332
G1 X122.909 Y66.235 E8.9209
G1 X123.97 Y66.77 E8.96042
G1 X124.401 Y67.029 E8.97715
G1 X124.605 Y67.158 E8.98518
G1 X125.361 Y67.683 E9.01579
G1 X125.796 Y68.033 E9.03436
G1 X125.954 Y68.167 E9.04125
G1 X126.63 Y68.792 E9.07187
G1 X127.025 Y69.213 E9.09107
G1 X127.31 Y69.534 E9.10535
G1 X127.89 Y70.249 E9.13597
G1 X128.182 Y70.66 E9.15274
G1 X128.225 Y70.724 E9.1553
G1 X128.542 Y71.227 E9.17508
G1 X128.65 Y71.409 E9.18212
G1 X129.085 Y72.22 E9.21273
G1 X129.312 Y72.726 E9.23117
G1 X129.425 Y72.996 E9.24091
G1 X129.743 Y73.86 E9.27153
G1 X129.925 Y74.496 E9.29353
G1 X129.982 Y74.722 E9.30128
G1 X130.168 Y75.623 E9.33188
G1 X130.251 Y76.257 E9.35315
G1 X130.3 Y76.746 E9.3695
G1 X130.352 Y77.65 E9.39961
G1 X130.36 Y78.287 E9.4208
G1 X130.36 Y114.696 E10.63177
G1 X130.397 Y117.321 E10.71909
G1 X130.504 Y119.829 E10.80258
G1 X130.682 Y122.349 E10.8866
G1 X130.93 Y124.846 E10.97006
G1 X131.086 Y126.026 E11.00965
G1 X131.1 Y126.185 E11.01496
G1 X131.266 Y127.522 E11.05977
G1 X131.34 Y128.45 E11.09073
G1 X131.352 Y128.842 E11.10378
G1 X131.358 Y129.323 E11.11978
G1 X131.358 Y130.034 E11.14342
G1 X131.35 Y130.789 E11.16854
G1 X131.301 Y131.709 E11.19918
G1 X131.171 Y132.62 E11.22979
G1 X130.963 Y133.517 E11.26041
G1 X130.679 Y134.392 E11.29101
G1 X130.319 Y135.24 E11.32165
G1 X129.887 Y136.053 E11.35227
G1 X129.386 Y136.825 E11.38288
G1 X128.82 Y137.551 E11.4135
G1 X128.193 Y138.226 E11.44414
G1 X127.51 Y138.843 E11.47475
G1 X126.776 Y139.398 E11.50536
G1 X125.996 Y139.888 E11.536
G1 X125.177 Y140.309 E11.56663
G1 X124.325 Y140.656 E11.59722
G1 X123.445 Y140.929 E11.62787
G1 X122.545 Y141.124 E11.6585
G1 X121.632 Y141.24 E11.68911
G1 X121.073 Y141.272 E11.70773
G1 X120.81 Y141.28 E11.71648
G1 X120.284 Y141.287 E11.73398
G1 X93.78 Y141.286 E12.61551
G1 X93.082 Y141.275 E12.63872
G1 X92.163 Y141.22 E12.66934
G1 X91.252 Y141.086 E12.69997
G1 X90.356 Y140.874 E12.73059
G1 X89.482 Y140.584 E12.76122
G1 X88.637 Y140.22 E12.79182
G1 X87.826 Y139.784 E12.82245
G1 X87.056 Y139.279 E12.85308
G1 X86.333 Y138.709 E12.8837
G1 X85.662 Y138.079 E12.91431
G1 X85.048 Y137.392 E12.94496
G1 X84.497 Y136.655 E12.97556
G1 X84.011 Y135.873 E13.00618
G1 X83.595 Y135.052 E13.0368
G1 X83.251 Y134.198 E13.06742
G1 X82.983 Y133.317 E13.09805
G1 X82.793 Y132.416 E13.12867
G1 X82.681 Y131.503 E13.15927
G1 X82.653 Y130.964 E13.17722
G1 X82.644 Y130.633 E13.18823
G1 X82.64 Y130.345 E13.19781
G1 X82.641 Y129.344 E13.23111
G1 X82.652 Y128.652 E13.25412
G1 X82.737 Y127.476 E13.29334
G1 X82.936 Y125.92 E13.34551
G1 X83.225 Y123.304 E13.43305
G1 X83.432 Y120.781 E13.51725
G1 X83.567 Y118.278 E13.60062
G1 X83.639 Y114.622 E13.72224
G1 X83.641 Y78.263 E14.93155
G1 X83.651 Y77.56 E14.95493
G1 X83.677 Y76.952 E14.97517
G1 X83.691 Y76.757 E14.98168
G1 X83.797 Y75.842 E15.01231
G1 X83.906 Y75.263 E15.03191
G1 X84.003 Y74.817 E15.04709
G1 X84.238 Y73.927 E15.0777
G1 X84.45 Y73.311 E15.09937
G1 X84.647 Y72.82 E15.11697
G1 X84.737 Y72.611 E15.12454
G1 X85.138 Y71.782 E15.15517
G1 X85.465 Y71.216 E15.17691
G1 X85.625 Y70.958 E15.187
G1 X86.143 Y70.198 E15.2176
G1 X86.567 Y69.667 E15.2402
G0 F6000 X86.872 Y69.927
G1 F1200 X87.011 Y69.764 E15.24732
G1 X87.627 Y69.103 E15.27737
G1 X87.988 Y68.765 E15.29382
G1 X88.308 Y68.48 E15.30807
G1 X89.008 Y67.91 E15.3381
G1 X89.404 Y67.63 E15.35423
G1 X89.468 Y67.587 E15.35679
G1 X89.965 Y67.274 E15.37633
G1 X90.146 Y67.167 E15.38332
G1 X90.943 Y66.742 E15.41336
G1 X91.411 Y66.533 E15.43041
G1 X91.682 Y66.42 E15.44018
G1 X92.73 Y66.048 E15.47716
G1 X92.832 Y66.018 E15.4807
G1 X93.463 Y65.855 E15.50238
G1 X93.68 Y65.806 E15.50978
G1 X94.877 Y65.609 E15.55012
G1 X94.993 Y65.597 E15.554
G1 X95.436 Y65.561 E15.56879
G1 X95.654 Y65.548 E15.57605
G1 X95.941 Y65.535 E15.5856
G1 X96.196 Y65.527 E15.59409
G1 X96.707 Y65.52 E15.61109
G1 X117.053 Y65.52 E16.2878
G1 X117.903 Y65.531 E16.31607
G1 X118.454 Y65.554 E16.33441
G1 X118.659 Y65.568 E16.34125
G1 X119.556 Y65.669 E16.37127
G1 X120.139 Y65.779 E16.391
G1 X120.588 Y65.877 E16.40629
G1 X121.461 Y66.108 E16.43632
G1 X122.051 Y66.313 E16.4571
G1 X122.54 Y66.511 E16.47465
G1 X122.749 Y66.602 E16.48223
G1 X123.77 Y67.116 E16.52025
G1 X124.187 Y67.367 E16.53643
G1 X124.391 Y67.496 E16.54446
G1 X125.133 Y68.012 E16.57452
G1 X125.537 Y68.338 E16.59179
G1 X125.695 Y68.472 E16.59868
G1 X126.358 Y69.086 E16.62873
G1 X126.726 Y69.479 E16.64664
G1 X127.011 Y69.8 E16.66092
G1 X127.58 Y70.501 E16.69095
G1 X127.85 Y70.884 E16.70653
G1 X127.893 Y70.948 E16.7091
G1 X128.198 Y71.431 E16.7281
G1 X128.306 Y71.613 E16.73514
G1 X128.732 Y72.409 E16.76516
G1 X128.943 Y72.88 E16.78233
G1 X129.056 Y73.15 E16.79207
G1 X129.368 Y73.998 E16.82212
G1 X129.537 Y74.594 E16.84272
G1 X129.594 Y74.82 E16.85048
G1 X129.776 Y75.704 E16.88049
G1 X129.853 Y76.297 E16.90038
G1 X129.902 Y76.786 E16.91673
G1 X129.952 Y77.655 E16.94568
G1 X129.96 Y78.287 E16.9667
G1 X129.96 Y114.702 E18.17787
G1 X129.997 Y117.308 E18.26455
G1 X130.106 Y119.873 E18.34994
G1 X130.284 Y122.38 E18.43354
G1 X130.531 Y124.876 E18.51696
G1 X130.69 Y126.078 E18.55729
G1 X130.706 Y126.255 E18.5632
G1 X130.869 Y127.572 E18.60733
G1 X130.941 Y128.464 E18.6371
G1 X130.952 Y128.848 E18.64988
G1 X130.958 Y129.323 E18.66568
G1 X130.958 Y130.03 E18.68919
G1 X130.95 Y130.785 E18.7143
G1 X130.901 Y131.687 E18.74435
G1 X130.772 Y132.581 E18.77439
G1 X130.564 Y133.46 E18.80443
G1 X130.28 Y134.317 E18.83446
G1 X129.92 Y135.145 E18.86449
G1 X129.489 Y135.939 E18.89454
G1 X128.989 Y136.691 E18.92458
G1 X128.425 Y137.396 E18.95461
G1 X127.801 Y138.049 E18.98465
G1 X127.121 Y138.643 E19.01468
G1 X126.391 Y139.176 E19.04474
G1 X125.618 Y139.641 E19.07474
G1 X124.806 Y140.036 E19.10478
G1 X123.962 Y140.358 E19.13482
G1 X123.093 Y140.605 E19.16487
G1 X122.206 Y140.773 E19.1949
G1 X121.061 Y140.872 E19.23312
G1 X120.588 Y140.885 E19.24886
G1 X120.384 Y140.887 E19.25564
G1 X93.786 Y140.886 E20.1403
G1 X93.088 Y140.875 E20.16352
G1 X92.187 Y140.821 E20.19354
G1 X91.294 Y140.687 E20.22357
G1 X90.416 Y140.475 E20.25361
G1 X89.56 Y140.186 E20.28366
G1 X88.734 Y139.822 E20.31368
G1 X87.942 Y139.387 E20.34374
G1 X87.193 Y138.883 E20.37376
G1 X86.49 Y138.315 E20.40382
G1 X85.841 Y137.688 E20.43384
G1 X85.25 Y137.005 E20.46388
G1 X84.721 Y136.273 E20.49392
G1 X84.26 Y135.496 E20.52397
G1 X83.869 Y134.682 E20.554
G1 X83.551 Y133.837 E20.58403
G1 X83.31 Y132.967 E20.61406
G1 X83.146 Y132.079 E20.64409
G1 X83.053 Y130.953 E20.68167
G1 X83.044 Y130.622 E20.69268
G1 X83.04 Y130.345 E20.7019
G1 X83.041 Y129.35 E20.73499
G1 X83.052 Y128.658 E20.75801
G1 X83.133 Y127.527 E20.79572
G1 X83.341 Y125.9 E20.85028
G1 X83.623 Y123.348 E20.93567
G1 X83.832 Y120.796 E21.02084
G1 X83.966 Y118.309 E21.10368
G1 X84.039 Y114.629 E21.2261
G1 X84.041 Y78.269 E22.43544
G1 X84.051 Y77.566 E22.45882
G1 X84.076 Y76.981 E22.4783
G1 X84.09 Y76.786 E22.4848
G1 X84.195 Y75.889 E22.51484
G1 X84.297 Y75.348 E22.53315
G1 X84.394 Y74.902 E22.54833
G1 X84.625 Y74.029 E22.57836
G1 X84.824 Y73.453 E22.59863
G1 X85.015 Y72.978 E22.61566
G1 X85.105 Y72.769 E22.62323
G1 X85.498 Y71.956 E22.65326
G1 X85.805 Y71.427 E22.67361
G1 X85.965 Y71.169 E22.6837
G1 X86.474 Y70.424 E22.71371
G1 X86.872 Y69.927 E22.73489
G1 F1500 E16.23489
;MESH:Arduino Micro Holder.STL
G0 F6000 X93.607 Y77.303
G0 X94.659 Y77.72
G0 X95.995 Y76.934
G0 X96.309 Y76.891
G0 X117.693 Y76.891
G0 X118.018 Y76.941
G0 X118.243 Y77.056
G0 X118.424 Y77.237
G0 X118.539 Y77.462
G0 X118.589 Y77.785
G0 X118.566 Y127.222
G0 X119.758 Y129.687
;TYPE:WALL-INNER
G1 F1500 E22.73489
G1 F1200 X119.572 Y129.687 E22.74108
G1 X119.373 Y129.687 E22.7477
G1 X94.627 Y129.687 E23.57075
G1 X94.417 Y129.687 E23.57774
G1 X94.24 Y129.687 E23.58362
G1 X94.24 Y129.551 E23.58653
G1 X94.417 Y129.461 E23.5898
G1 X94.566 Y129.314 E23.59537
G1 X94.865 Y129.018 E23.60936
G1 X95.151 Y128.457 E23.63031
G1 X95.239 Y127.913 E23.64864
G1 X95.24 Y77.769 E25.31643
G1 X95.296 Y77.409 E25.32855
G1 X95.435 Y77.137 E25.33871
G1 X95.657 Y76.915 E25.34915
G1 X95.943 Y76.769 E25.35983
G1 X96.296 Y76.72 E25.37168
G1 X117.709 Y76.72 E26.08388
G1 X118.071 Y76.776 E26.09607
G1 X118.343 Y76.915 E26.10623
G1 X118.565 Y77.137 E26.11667
G1 X118.704 Y77.409 E26.12683
G1 X118.76 Y77.769 E26.13895
G1 X118.76 Y127.908 E27.80658
G1 X118.845 Y128.446 E27.82469
G1 X119.129 Y129.007 E27.84561
G1 X119.433 Y129.314 E27.85998
G1 X119.572 Y129.455 E27.86528
G1 X119.758 Y129.55 E27.86879
G1 X119.758 Y129.687 E27.87226
G0 F6000 X120.159 Y130.087
G1 F1200 X119.96 Y130.087 E27.87888
G1 X93.84 Y130.087 E28.74763
G1 X93.84 Y129.306 E28.77361
G1 X94.18 Y129.133 E28.7863
G1 X94.538 Y128.779 E28.80304
G1 X94.766 Y128.331 E28.81976
G1 X94.839 Y127.881 E28.83492
G1 X94.84 Y77.739 E30.50265
G1 X94.911 Y77.286 E30.5179
G1 X94.94 Y77.229 E30.52003
G1 X95.109 Y76.897 E30.53242
G1 X95.417 Y76.589 E30.54691
G1 X95.475 Y76.56 E30.54907
G1 X95.761 Y76.414 E30.55975
G1 X95.806 Y76.391 E30.56143
G1 X95.85 Y76.381 E30.56293
G1 X96.025 Y76.339 E30.56891
G1 X96.279 Y76.32 E30.57739
G1 X117.739 Y76.32 E31.29115
G1 X118.194 Y76.391 E31.30646
G1 X118.251 Y76.42 E31.30859
G1 X118.583 Y76.589 E31.32098
G1 X118.891 Y76.897 E31.33547
G1 X118.92 Y76.955 E31.33763
G1 X119.059 Y77.227 E31.34779
G1 X119.089 Y77.286 E31.34999
G1 X119.098 Y77.347 E31.35204
G1 X119.16 Y77.739 E31.36524
G1 X119.16 Y127.877 E33.03283
G1 X119.23 Y128.322 E33.04782
G1 X119.457 Y128.77 E33.06452
G1 X119.811 Y129.128 E33.08127
G1 X120.158 Y129.304 E33.09421
G1 X120.159 Y129.888 E33.11363
G1 X120.159 Y130.087 E33.11791
G0 F6000 X120.56 Y130.487
;TYPE:WALL-OUTER
G1 F1200 X93.44 Y130.487 E34.01993
G1 X93.44 Y129.001 E34.06935
G1 X93.608 Y128.975 E34.07501
G1 X93.943 Y128.805 E34.0875
G1 X94.211 Y128.54 E34.10004
G1 X94.381 Y128.205 E34.11253
G1 X94.439 Y127.849 E34.12453
G1 X94.44 Y77.72 E35.79183
G1 X94.462 Y77.444 E35.80104
G1 X94.53 Y77.16 E35.81075
G1 X94.636 Y76.904 E35.81996
G1 X94.785 Y76.661 E35.82944
G1 X94.968 Y76.448 E35.83878
G1 X95.181 Y76.265 E35.84812
G1 X95.424 Y76.116 E35.85761
G1 X95.68 Y76.01 E35.86682
G1 X95.964 Y75.942 E35.87653
G1 X96.264 Y75.92 E35.88654
G1 X117.757 Y75.92 E36.6014
G1 X118.036 Y75.942 E36.61071
G1 X118.32 Y76.01 E36.62042
G1 X118.576 Y76.116 E36.62964
G1 X118.819 Y76.265 E36.63912
G1 X119.032 Y76.448 E36.64846
G1 X119.215 Y76.661 E36.6578
