;FLAVOR:Marlin
;TIME:1654
;Filament used: 0.546039m
;Layer height: 0.12
;MINX:81.39
;MINY:100.597
;MINZ:0.12
;MAXX:132.61
;MAXY:132.36
;MAXZ:10.92
;Generated with Cura_SteamEngine 4.8.0
M140 S60
M105
M190 S60
M104 S200
M105
M109 S200
M82 ;absolute extrusion mode
; Ender 3 Custom Start G-code
G92 E0 ; Reset Extruder
G28 ; Home all axes
G1 Z2.0 F3000 ; Move Z Axis up little to prevent scratching of Heat Bed
G1 X0.1 Y20 Z0.3 F5000.0 ; Move to start position
G1 X0.1 Y200.0 Z0.3 F1500.0 E15 ; Draw the first line
G1 X0.4 Y200.0 Z0.3 F5000.0 ; Move to side a little
G1 X0.4 Y20 Z0.3 F1500.0 E30 ; Draw the second line
G92 E0 ; Reset Extruder
G1 Z2.0 F3000 ; Move Z Axis up little to prevent scratching of Heat Bed
G1 X5 Y20 Z0.3 F5000.0 ; Move over to prevent blob squish
G92 E0
G92 E0
G1 F1500 E-6.5
;LAYER_COUNT:91
;LAYER:0
M107
G0 F6000 X85.548 Y103.255 Z0.12
;TYPE:SKIRT
G1 F1500 E0
G1 F1200 X86.293 Y102.686 E0.01871
G1 X87.084 Y102.181 E0.03744
G1 X87.915 Y101.746 E0.05615
G1 X88.78 Y101.384 E0.07487
G1 X89.251 Y101.221 E0.08481
G1 X89.536 Y101.13 E0.09078
G1 X90.441 Y100.883 E0.1095
G1 X91.363 Y100.714 E0.12821
G1 X92.657 Y100.611 E0.15411
G1 X93.146 Y100.601 E0.16388
G1 X93.728 Y100.605 E0.17549
G1 X94.806 Y100.69 E0.19707
G1 X95.518 Y100.781 E0.21139
G1 X98.062 Y101.073 E0.2625
G1 X100.602 Y101.291 E0.31337
G1 X103.134 Y101.437 E0.36398
G1 X105.619 Y101.51 E0.4136
G1 X108.143 Y101.512 E0.46396
G1 X110.666 Y101.443 E0.51433
G1 X113.185 Y101.303 E0.56468
G1 X115.662 Y101.095 E0.61428
G1 X118.231 Y100.805 E0.66588
G1 X118.767 Y100.733 E0.67667
G1 X119.223 Y100.679 E0.68583
G1 X119.766 Y100.63 E0.69671
G1 X119.874 Y100.623 E0.69887
G1 X120.418 Y100.601 E0.70974
G1 X120.681 Y100.597 E0.71499
G1 X121.038 Y100.598 E0.72211
G1 X121.269 Y100.602 E0.72672
G1 X122.206 Y100.658 E0.74545
G1 X123.407 Y100.849 E0.76972
G1 X123.661 Y100.904 E0.77491
G1 X124.568 Y101.142 E0.79362
G1 X125.452 Y101.455 E0.81234
G1 X126.306 Y101.843 E0.83106
G1 X127.124 Y102.303 E0.84978
G1 X127.899 Y102.83 E0.86849
G1 X128.471 Y103.286 E0.88308
G1 X128.641 Y103.431 E0.88754
G1 X129.328 Y104.069 E0.90625
G1 X129.958 Y104.764 E0.92497
G1 X130.527 Y105.51 E0.9437
G1 X131.03 Y106.301 E0.9624
G1 X131.592 Y107.416 E0.98732
G1 X131.675 Y107.607 E0.99148
G1 X132.011 Y108.482 E1.01018
G1 X132.272 Y109.383 E1.0289
G1 X132.456 Y110.303 E1.04762
G1 X132.561 Y111.249 E1.06662
G1 X132.581 Y111.545 E1.07254
G1 X132.605 Y112.156 E1.08474
G1 X132.61 Y112.622 E1.09404
G1 X132.609 Y119.076 E1.22284
G1 X132.597 Y119.838 E1.23805
G1 X132.554 Y120.652 E1.25431
G1 X132.544 Y120.763 E1.25654
G1 X132.338 Y122.107 E1.28367
G1 X132.248 Y122.522 E1.29215
G1 X132.01 Y123.43 E1.31088
G1 X131.652 Y124.422 E1.33192
G1 X131.597 Y124.554 E1.33478
G1 X131.2 Y125.403 E1.35348
G1 X130.963 Y125.833 E1.36328
G1 X130.772 Y126.163 E1.37089
G1 X130.268 Y126.954 E1.38961
G1 X129.64 Y127.769 E1.41014
G1 X129.517 Y127.914 E1.41393
G1 X128.881 Y128.602 E1.43263
G1 X128.433 Y129.023 E1.4449
G1 X128.183 Y129.245 E1.45157
G1 X127.456 Y129.837 E1.47028
G1 X126.725 Y130.338 E1.48797
G1 X126.572 Y130.434 E1.49157
G1 X125.757 Y130.898 E1.51029
G1 X125.147 Y131.189 E1.52377
G1 X124.787 Y131.347 E1.53162
G1 X123.913 Y131.687 E1.55033
G1 X122.921 Y131.973 E1.57094
G1 X122.787 Y132.005 E1.57369
G1 X121.866 Y132.184 E1.59241
G1 X121.331 Y132.251 E1.60317
G1 X120.863 Y132.298 E1.61256
G1 X119.917 Y132.352 E1.63147
G1 X119.26 Y132.36 E1.64458
G1 X94.691 Y132.359 E2.13488
G1 X93.985 Y132.349 E2.14897
G1 X93.357 Y132.322 E2.16151
G1 X93.189 Y132.31 E2.16487
G1 X92.257 Y132.203 E2.1836
G1 X91.628 Y132.085 E2.19637
G1 X91.211 Y131.994 E2.20488
G1 X90.304 Y131.755 E2.2236
G1 X89.308 Y131.394 E2.24474
G1 X89.179 Y131.34 E2.24753
G1 X88.331 Y130.941 E2.26624
G1 X87.917 Y130.713 E2.27567
G1 X87.587 Y130.522 E2.28328
G1 X86.796 Y130.018 E2.302
G1 X85.971 Y129.382 E2.32278
G1 X85.824 Y129.257 E2.32663
G1 X85.136 Y128.619 E2.34536
G1 X84.721 Y128.177 E2.35746
G1 X84.501 Y127.929 E2.36407
G1 X83.909 Y127.201 E2.3828
G1 X83.399 Y126.454 E2.40085
G1 X83.301 Y126.297 E2.40454
G1 X82.838 Y125.481 E2.42327
G1 X82.552 Y124.877 E2.4366
G1 X82.396 Y124.52 E2.44438
G1 X82.058 Y123.645 E2.4631
G1 X81.781 Y122.688 E2.48298
G1 X81.749 Y122.555 E2.48571
G1 X81.569 Y121.635 E2.50442
G1 X81.5 Y121.088 E2.51542
G1 X81.452 Y120.613 E2.52494
G1 X81.397 Y119.64 E2.54439
G1 X81.39 Y119.01 E2.55697
G1 X81.391 Y112.6 E2.68488
G1 X81.401 Y111.949 E2.69788
G1 X81.456 Y111.013 E2.71659
G1 X81.655 Y109.764 E2.74183
G1 X81.71 Y109.513 E2.74696
G1 X81.95 Y108.606 E2.76568
G1 X82.266 Y107.723 E2.78439
G1 X82.656 Y106.87 E2.80311
G1 X83.117 Y106.053 E2.82183
G1 X83.646 Y105.279 E2.84054
G1 X84.075 Y104.741 E2.85427
G1 X84.217 Y104.574 E2.85865
G1 X84.854 Y103.886 E2.87736
G1 X85.548 Y103.255 E2.89608
G0 F6000 X85.83 Y103.541
G1 F1200 X86.564 Y102.984 E2.91447
G1 X87.343 Y102.494 E2.93283
G1 X88.162 Y102.073 E2.95121
G1 X89.373 Y101.602 E2.97714
G1 X89.658 Y101.511 E2.98311
G1 X90.546 Y101.27 E3.00147
G1 X91.452 Y101.106 E3.01984
G1 X92.665 Y101.011 E3.04413
G1 X93.154 Y101.001 E3.05389
G1 X93.717 Y101.005 E3.06512
G1 X94.755 Y101.086 E3.0859
G1 X95.489 Y101.18 E3.10067
G1 X98.053 Y101.474 E3.15217
G1 X100.581 Y101.691 E3.2028
G1 X103.099 Y101.836 E3.25314
G1 X105.607 Y101.91 E3.30321
G1 X108.153 Y101.912 E3.35402
G1 X110.666 Y101.843 E3.40418
G1 X113.206 Y101.702 E3.45495
G1 X115.739 Y101.489 E3.50568
G1 X118.285 Y101.202 E3.55681
G1 X119.025 Y101.104 E3.5717
G1 X119.269 Y101.076 E3.57661
G1 X119.791 Y101.029 E3.58707
G1 X119.899 Y101.022 E3.58922
G1 X120.424 Y101.001 E3.59971
G1 X120.687 Y100.997 E3.60496
G1 X121.032 Y100.998 E3.61184
G1 X121.263 Y101.002 E3.61645
G1 X122.181 Y101.057 E3.63481
G1 X123.322 Y101.24 E3.65787
G1 X123.576 Y101.295 E3.66305
G1 X124.467 Y101.529 E3.68144
G1 X125.334 Y101.839 E3.69981
G1 X126.17 Y102.223 E3.71817
G1 X126.97 Y102.678 E3.73654
G1 X127.728 Y103.201 E3.75492
G1 X128.212 Y103.59 E3.76731
G1 X128.382 Y103.735 E3.77177
G1 X129.056 Y104.362 E3.79014
G1 X129.673 Y105.046 E3.80852
G1 X130.228 Y105.78 E3.82688
G1 X130.717 Y106.56 E3.84526
G1 X131.225 Y107.575 E3.86791
G1 X131.308 Y107.766 E3.87206
G1 X131.638 Y108.626 E3.89044
G1 X131.892 Y109.511 E3.90882
G1 X132.068 Y110.414 E3.92718
G1 X132.162 Y111.276 E3.94448
G1 X132.182 Y111.572 E3.9504
G1 X132.205 Y112.16 E3.96215
G1 X132.21 Y112.622 E3.97137
G1 X132.209 Y119.07 E4.10004
G1 X132.197 Y119.832 E4.11525
G1 X132.155 Y120.616 E4.13092
G1 X132.145 Y120.727 E4.13314
G1 X131.947 Y122.023 E4.15931
G1 X131.857 Y122.438 E4.16778
G1 X131.623 Y123.328 E4.18615
G1 X131.283 Y124.268 E4.20609
G1 X131.228 Y124.4 E4.20895
G1 X130.617 Y125.633 E4.23641
G1 X130.426 Y125.963 E4.24402
G1 X129.931 Y126.739 E4.26239
G1 X129.335 Y127.51 E4.28183
G1 X129.212 Y127.655 E4.28563
G1 X128.587 Y128.331 E4.304
G1 X128.167 Y128.724 E4.31548
G1 X127.917 Y128.946 E4.32215
G1 X127.203 Y129.527 E4.34052
G1 X126.513 Y129.999 E4.3572
G1 X126.36 Y130.095 E4.36081
G1 X125.559 Y130.55 E4.37919
G1 X124.986 Y130.822 E4.39185
G1 X124.626 Y130.98 E4.3997
G1 X123.768 Y131.313 E4.41806
G1 X122.828 Y131.584 E4.43759
G1 X122.694 Y131.616 E4.44033
G1 X121.79 Y131.791 E4.45871
G1 X121.291 Y131.853 E4.46874
G1 X120.823 Y131.9 E4.47813
G1 X119.911 Y131.952 E4.49636
G1 X119.26 Y131.96 E4.50935
G1 X94.697 Y131.959 E4.99953
G1 X93.991 Y131.949 E5.01362
G1 X93.386 Y131.923 E5.02571
G1 X93.218 Y131.911 E5.02907
G1 X92.303 Y131.806 E5.04745
G1 X91.713 Y131.694 E5.05943
G1 X91.296 Y131.603 E5.06795
G1 X90.406 Y131.368 E5.08632
G1 X89.463 Y131.025 E5.10635
G1 X89.334 Y130.971 E5.10914
G1 X88.117 Y130.367 E5.13625
G1 X87.787 Y130.176 E5.14386
G1 X87.011 Y129.681 E5.16223
G1 X86.23 Y129.077 E5.18193
G1 X86.083 Y128.952 E5.18578
G1 X85.409 Y128.326 E5.20414
G1 X85.02 Y127.911 E5.21549
G1 X84.8 Y127.663 E5.2221
G1 X84.22 Y126.949 E5.24046
G1 X83.738 Y126.242 E5.25754
G1 X83.64 Y126.085 E5.26123
G1 X83.187 Y125.283 E5.27961
G1 X82.919 Y124.716 E5.29213
G1 X82.763 Y124.359 E5.2999
G1 X82.431 Y123.501 E5.31826
G1 X82.17 Y122.595 E5.33708
G1 X82.138 Y122.462 E5.33981
G1 X81.962 Y121.558 E5.35819
G1 X81.898 Y121.048 E5.36844
G1 X81.85 Y120.573 E5.37797
G1 X81.797 Y119.635 E5.39672
G1 X81.79 Y119.01 E5.40919
G1 X81.791 Y112.606 E5.53699
G1 X81.801 Y111.955 E5.54999
G1 X81.855 Y111.036 E5.56836
G1 X82.046 Y109.849 E5.59235
G1 X82.101 Y109.598 E5.59748
G1 X82.337 Y108.708 E5.61585
G1 X82.649 Y107.842 E5.63422
G1 X83.035 Y107.006 E5.6526
G1 X83.492 Y106.207 E5.67097
G1 X84.017 Y105.451 E5.68933
G1 X84.38 Y105.001 E5.70087
G1 X84.522 Y104.834 E5.70525
G1 X85.148 Y104.159 E5.72362
G1 X85.83 Y103.541 E5.74198
G0 F6000 X86.112 Y103.827
G1 F1200 X86.834 Y103.284 E5.76001
G1 X87.601 Y102.807 E5.77804
G1 X88.407 Y102.4 E5.79606
G1 X89.494 Y101.983 E5.81929
G1 X89.779 Y101.892 E5.82526
G1 X90.651 Y101.656 E5.84329
G1 X91.54 Y101.498 E5.86131
G1 X92.673 Y101.411 E5.88398
G1 X93.162 Y101.401 E5.89374
G1 X93.705 Y101.404 E5.90458
G1 X94.704 Y101.483 E5.92458
G1 X95.397 Y101.572 E5.93852
G1 X98.009 Y101.871 E5.99099
G1 X100.557 Y102.09 E6.04202
G1 X103.065 Y102.235 E6.09216
G1 X105.63 Y102.31 E6.14337
G1 X108.163 Y102.312 E6.19392
G1 X110.699 Y102.243 E6.24454
G1 X113.225 Y102.102 E6.29503
G1 X115.75 Y101.89 E6.3456
G1 X118.334 Y101.599 E6.39749
G1 X118.874 Y101.526 E6.40836
G1 X119.314 Y101.474 E6.4172
G1 X119.817 Y101.428 E6.42728
G1 X119.925 Y101.421 E6.42944
G1 X120.43 Y101.401 E6.43953
G1 X120.693 Y101.397 E6.44478
G1 X121.025 Y101.398 E6.4514
G1 X121.256 Y101.402 E6.45602
G1 X122.157 Y101.457 E6.47403
G1 X123.238 Y101.631 E6.49588
G1 X123.492 Y101.686 E6.50107
G1 X124.365 Y101.916 E6.51908
G1 X125.215 Y102.222 E6.53711
G1 X126.034 Y102.603 E6.55514
G1 X126.816 Y103.054 E6.57315
G1 X127.555 Y103.573 E6.59117
G1 X127.952 Y103.894 E6.60136
G1 X128.122 Y104.039 E6.60582
G1 X128.783 Y104.655 E6.62385
G1 X129.386 Y105.327 E6.64187
G1 X129.928 Y106.05 E6.6599
G1 X130.403 Y106.818 E6.67792
G1 X130.858 Y107.735 E6.69835
G1 X130.941 Y107.926 E6.70251
G1 X131.264 Y108.769 E6.72052
G1 X131.511 Y109.638 E6.73855
G1 X131.68 Y110.525 E6.75657
G1 X131.763 Y111.303 E6.77218
G1 X131.783 Y111.599 E6.7781
G1 X131.805 Y112.165 E6.78941
G1 X131.81 Y112.622 E6.79853
G1 X131.809 Y119.064 E6.92709
G1 X131.797 Y119.826 E6.94229
G1 X131.757 Y120.58 E6.95736
G1 X131.747 Y120.691 E6.95959
G1 X131.556 Y121.938 E6.98476
G1 X131.466 Y122.353 E6.99324
G1 X131.236 Y123.226 E7.01125
G1 X130.913 Y124.114 E7.03011
G1 X130.858 Y124.246 E7.03296
G1 X130.271 Y125.433 E7.05939
G1 X130.08 Y125.763 E7.067
G1 X129.593 Y126.523 E7.08501
G1 X129.03 Y127.251 E7.10338
G1 X128.907 Y127.396 E7.10717
G1 X128.293 Y128.058 E7.12519
G1 X127.902 Y128.425 E7.13589
G1 X127.652 Y128.647 E7.14256
G1 X126.951 Y129.216 E7.16058
G1 X126.3 Y129.66 E7.17631
G1 X126.147 Y129.756 E7.17991
G1 X125.362 Y130.202 E7.19793
G1 X124.825 Y130.456 E7.20978
G1 X124.465 Y130.614 E7.21763
G1 X123.623 Y130.94 E7.23565
G1 X122.735 Y131.195 E7.25408
G1 X122.601 Y131.227 E7.25683
G1 X121.714 Y131.398 E7.27486
G1 X121.251 Y131.455 E7.28417
G1 X120.783 Y131.502 E7.29356
G1 X119.906 Y131.552 E7.31109
G1 X119.26 Y131.56 E7.32398
G1 X94.703 Y131.559 E7.81404
G1 X93.997 Y131.549 E7.82813
G1 X93.414 Y131.524 E7.83978
G1 X93.246 Y131.512 E7.84314
G1 X92.349 Y131.408 E7.86116
G1 X91.798 Y131.303 E7.87235
G1 X91.381 Y131.212 E7.88087
G1 X90.508 Y130.981 E7.89889
G1 X89.617 Y130.656 E7.91782
G1 X89.488 Y130.602 E7.92061
G1 X88.317 Y130.021 E7.94669
G1 X87.987 Y129.83 E7.9543
G1 X87.227 Y129.343 E7.97232
G1 X86.489 Y128.772 E7.99094
G1 X86.342 Y128.647 E7.99479
G1 X85.681 Y128.033 E8.01279
G1 X85.32 Y127.646 E8.02335
G1 X85.1 Y127.398 E8.02997
G1 X84.531 Y126.696 E8.048
G1 X84.077 Y126.03 E8.06409
G1 X83.979 Y125.873 E8.06778
G1 X83.536 Y125.087 E8.08579
G1 X83.285 Y124.556 E8.09751
G1 X83.129 Y124.199 E8.10528
G1 X82.805 Y123.356 E8.1233
G1 X82.559 Y122.501 E8.14106
G1 X82.527 Y122.368 E8.14379
G1 X82.355 Y121.482 E8.1618
G1 X82.296 Y121.008 E8.17133
G1 X82.248 Y120.533 E8.18086
G1 X82.197 Y119.63 E8.19891
G1 X82.19 Y119.01 E8.21128
G1 X82.191 Y112.612 E8.33896
G1 X82.201 Y111.961 E8.35195
G1 X82.255 Y111.06 E8.36997
G1 X82.436 Y109.935 E8.39271
G1 X82.491 Y109.684 E8.39783
G1 X82.724 Y108.811 E8.41587
G1 X83.032 Y107.962 E8.43389
G1 X83.414 Y107.144 E8.45191
G1 X83.868 Y106.363 E8.46993
G1 X84.388 Y105.625 E8.48795
G1 X84.684 Y105.26 E8.49733
G1 X84.826 Y105.093 E8.5017
G1 X85.441 Y104.431 E8.51973
G1 X86.112 Y103.827 E8.53775
G1 F1500 E2.03775
;MESH:Arduino Micro Holder Lid.STL
G0 F6000 X98.041 Y112.92
G0 X98.166 Y114.009
G0 X116.984 Y114.489
G0 X120.421 Y112.879
G0 X120.401 Y119.779
G0 X120.082 Y120.315
;TYPE:WALL-INNER
G1 F1500 E8.53775
G1 F1200 X119.796 Y120.36 E8.54353
G1 X94.204 Y120.36 E9.05424
G1 X93.918 Y120.315 E9.06002
G1 X93.704 Y120.207 E9.06481
G1 X93.543 Y120.046 E9.06935
G1 X93.435 Y119.833 E9.07412
G1 X93.39 Y119.548 E9.07987
G1 X93.39 Y112.866 E9.21322
G1 X93.39 Y112.622 E9.21809
G1 X93.39 Y112.603 E9.21847
G1 X93.48 Y112.622 E9.21944
G1 X93.7 Y112.726 E9.2227
G1 X97.289 Y114.43 E9.30199
G1 X97.758 Y114.572 E9.31177
G1 X98.152 Y114.59 E9.31964
G1 X116.006 Y114.59 E9.67593
G1 X116.496 Y114.517 E9.68582
G1 X116.913 Y114.334 E9.69491
G1 X120.293 Y112.73 E9.76957
G1 X120.495 Y112.634 E9.77403
G1 X120.61 Y112.607 E9.77639
G1 X120.61 Y112.634
G1 X120.61 Y112.858 E9.77952
G1 X120.61 Y119.548 E9.91302
G1 X120.565 Y119.833 E9.91878
G1 X120.457 Y120.046 E9.92355
G1 X120.296 Y120.207 E9.92809
G1 X120.082 Y120.315 E9.93287
G0 F6000 X120.208 Y120.7
G1 F1200 X119.826 Y120.76 E9.94059
G1 X94.174 Y120.76 E10.4525
G1 X93.792 Y120.7 E10.46022
G1 X93.466 Y120.535 E10.46751
G1 X93.215 Y120.284 E10.4746
G1 X93.05 Y119.958 E10.48189
G1 X92.99 Y119.579 E10.48955
G1 X92.99 Y112.201 E10.63678
G1 X92.99 Y112.19 E10.637
G1 X93.371 Y112.19 E10.6446
G1 X93.381 Y112.192 E10.6448
G1 X93.607 Y112.239 E10.64941
G1 X97.434 Y114.056 E10.73395
G1 X97.826 Y114.175 E10.74213
G1 X98.161 Y114.19 E10.74882
G1 X115.976 Y114.19 E11.10434
G1 X116.384 Y114.129 E11.11257
G1 X116.747 Y113.97 E11.12048
G1 X120.364 Y112.253 E11.20038
G1 X120.622 Y112.193 E11.20567
G1 X120.636 Y112.19 E11.20595
G1 X121.01 Y112.19 E11.21342
G1 X121.01 Y112.205 E11.21371
G1 X121.01 Y119.579 E11.36086
G1 X120.95 Y119.958 E11.36852
G1 X120.785 Y120.284 E11.37581
G1 X120.534 Y120.535 E11.3829
G1 X120.208 Y120.7 E11.39019
G0 F6000 X120.334 Y121.085
;TYPE:WALL-OUTER
G1 F1200 X119.856 Y121.16 E11.39984
G1 X94.144 Y121.16 E11.91295
G1 X93.666 Y121.085 E11.92261
G1 X93.228 Y120.863 E11.93241
G1 X92.887 Y120.522 E11.94203
G1 X92.665 Y120.084 E11.95183
G1 X92.59 Y119.61 E11.96141
G1 X92.59 Y112.115 E12.11098
G1 X92.628 Y111.956 E12.11424
G1 X92.717 Y111.852 E12.11697
G1 X92.923 Y111.79 E12.12127
G1 X93.4 Y111.79 E12.13079
G1 X93.651 Y111.826 E12.13585
G1 X93.765 Y111.871 E12.13829
G1 X97.579 Y113.682 E12.22255
G1 X97.894 Y113.778 E12.22912
G1 X98.17 Y113.79 E12.23463
G1 X115.946 Y113.79 E12.58937
G1 X116.272 Y113.741 E12.59595
G1 X116.581 Y113.606 E12.60268
G1 X120.233 Y111.872 E12.68336
G1 X120.59 Y111.79 E12.69067
G1 X121.085 Y111.79 E12.70055
G1 X121.244 Y111.828 E12.70381
G1 X121.348 Y111.917 E12.70654
G1 X121.41 Y112.133 E12.71103
G1 X121.41 Y119.61 E12.86024
G1 X121.335 Y120.084 E12.86981
G1 X121.113 Y120.522 E12.87961
G1 X120.772 Y120.863 E12.88924
G1 X120.334 Y121.085 E12.89904
G0 F6000 X120.199 Y120.667
G0 X119.96 Y119.939
;TYPE:SKIN
G1 F1200 X119.762 Y119.97 E12.90304
G1 X94.238 Y119.97 E13.4124
G1 X93.93 Y119.883 E13.41878
G1 X93.813 Y119.717 E13.42284
G1 X93.78 Y119.513 E13.42696
G1 X93.78 Y113.197 E13.553
G1 X97.148 Y114.795 E13.6274
G1 X97.692 Y114.96 E13.63874
G1 X98.143 Y114.98 E13.64775
G1 X116.035 Y114.98 E14.0048
G1 X116.605 Y114.895 E14.0163
G1 X117.075 Y114.689 E14.02655
G1 X120.22 Y113.197 E14.09601
G1 X120.22 Y119.513 E14.22205
G1 X120.137 Y119.816 E14.22832
G1 X119.96 Y119.939 E14.23262
G0 F6000 X120.086 Y120.19
G0 X120.401 Y119.779
G0 X120.421 Y112.879
G0 X119.61 Y113.176
G0 X119.798 Y113.575
G1 F1200 X120.059 Y113.837 E14.24
G0 F6000 X120.059 Y114.402
G1 F1200 X119.414 Y113.757 E14.25821
G0 F6000 X119.03 Y113.938
