;FLAVOR:Marlin
;TIME:6701
;Filament used: 3.43494m
;Layer height: 0.16
;MINX:29.05
;MINY:28.344
;MINZ:0.2
;MAXX:186.8
;MAXY:196.094
;MAXZ:15.859
;Generated with Cura_SteamEngine 4.8.0
M140 S60
M105
M190 S60
M104 S200
M105
M109 S200
M82 ;absolute extrusion mode
; Ender 3 Custom Start G-code
G92 E0 ; Reset Extruder
G28 ; Home all axes
G1 Z2.0 F3000 ; Move Z Axis up little to prevent scratching of Heat Bed
G1 X0.1 Y20 Z0.3 F5000.0 ; Move to start position
G1 X0.1 Y200.0 Z0.3 F1500.0 E15 ; Draw the first line
G1 X0.4 Y200.0 Z0.3 F5000.0 ; Move to side a little
G1 X0.4 Y20 Z0.3 F1500.0 E30 ; Draw the second line
G92 E0 ; Reset Extruder
G1 Z2.0 F3000 ; Move Z Axis up little to prevent scratching of Heat Bed
G1 X5 Y20 Z0.3 F5000.0 ; Move over to prevent blob squish
G92 E0
G92 E0
G1 F1500 E-6.5
;LAYER_COUNT:71
;LAYER:0
M107
G0 F6000 X37.041 Y134.337 Z0.2
;TYPE:SKIRT
G1 F1500 E0
G1 F1200 X37.953 Y134.119 E0.03119
G1 X38.88 Y133.978 E0.06237
G1 X39.751 Y133.919 E0.09141
G1 X40.072 Y133.91 E0.10209
G1 X40.38 Y133.906 E0.11234
G1 X69.243 Y133.906 E1.07232
G1 X70.099 Y133.917 E1.1008
G1 X71.035 Y133.971 E1.13198
G1 X71.963 Y134.103 E1.16316
G1 X72.877 Y134.315 E1.19436
G1 X73.769 Y134.604 E1.22555
G1 X74.634 Y134.967 E1.25675
G1 X75.464 Y135.403 E1.28793
G1 X76.255 Y135.908 E1.31915
G1 X76.999 Y136.479 E1.35034
G1 X77.692 Y137.111 E1.38153
G1 X78.329 Y137.799 E1.41272
G1 X78.904 Y138.54 E1.44391
G1 X79.415 Y139.326 E1.4751
G1 X79.857 Y140.154 E1.50631
G1 X80.226 Y141.016 E1.5375
G1 X80.521 Y141.906 E1.56869
G1 X80.739 Y142.818 E1.59987
G1 X80.879 Y143.746 E1.63109
G1 X80.937 Y144.607 E1.65979
G1 X80.946 Y144.927 E1.67044
G1 X80.95 Y145.236 E1.68072
G1 X80.949 Y184.494 E2.98644
G1 X80.94 Y185.221 E3.01062
G1 X80.889 Y186.158 E3.04184
G1 X80.757 Y187.086 E3.07301
G1 X80.548 Y188 E3.1042
G1 X80.261 Y188.893 E3.13539
G1 X79.899 Y189.759 E3.16661
G1 X79.465 Y190.59 E3.19779
G1 X78.961 Y191.381 E3.22899
G1 X78.392 Y192.126 E3.26017
G1 X77.761 Y192.821 E3.29139
G1 X77.074 Y193.459 E3.32257
G1 X76.335 Y194.036 E3.35376
G1 X75.549 Y194.548 E3.38496
G1 X74.723 Y194.991 E3.41613
G1 X73.861 Y195.363 E3.44736
G1 X72.972 Y195.659 E3.47852
G1 X72.06 Y195.879 E3.50972
G1 X71.133 Y196.02 E3.54091
G1 X70.249 Y196.081 E3.57038
G1 X69.928 Y196.09 E3.58106
G1 X69.62 Y196.094 E3.59131
G1 X40.615 Y196.093 E4.55602
G1 X39.917 Y196.084 E4.57924
G1 X38.981 Y196.032 E4.61042
G1 X38.052 Y195.9 E4.64163
G1 X37.138 Y195.69 E4.67282
G1 X36.245 Y195.403 E4.70401
G1 X35.38 Y195.04 E4.73522
G1 X34.549 Y194.606 E4.7664
G1 X33.758 Y194.102 E4.79759
G1 X33.013 Y193.532 E4.82879
G1 X32.319 Y192.901 E4.85999
G1 X31.682 Y192.214 E4.89115
G1 X31.105 Y191.474 E4.92236
G1 X30.593 Y190.688 E4.95356
G1 X30.15 Y189.861 E4.98476
G1 X29.779 Y189 E5.01595
G1 X29.483 Y188.11 E5.04714
G1 X29.264 Y187.198 E5.07834
G1 X29.123 Y186.271 E5.10952
G1 X29.063 Y185.382 E5.13916
G1 X29.054 Y185.049 E5.15024
G1 X29.05 Y184.752 E5.16012
G1 X29.051 Y145.431 E6.46794
G1 X29.06 Y144.766 E6.49006
G1 X29.113 Y143.83 E6.52124
G1 X29.245 Y142.901 E6.55245
G1 X29.456 Y141.987 E6.58365
G1 X29.744 Y141.095 E6.61483
G1 X30.107 Y140.23 E6.64603
G1 X30.542 Y139.399 E6.67722
G1 X31.046 Y138.609 E6.70839
G1 X31.616 Y137.864 E6.73959
G1 X32.248 Y137.17 E6.77081
G1 X32.936 Y136.533 E6.80199
G1 X33.676 Y135.957 E6.83318
G1 X34.462 Y135.445 E6.86438
G1 X35.289 Y135.003 E6.89557
G1 X36.151 Y134.633 E6.92677
G1 X37.041 Y134.337 E6.95797
G0 F6000 X37.395 Y134.655
G1 F1200 X38.295 Y134.463 E6.98858
G1 X39.209 Y134.349 E7.01921
G1 X39.762 Y134.319 E7.03763
G1 X40.083 Y134.31 E7.04831
G1 X40.38 Y134.306 E7.05819
G1 X69.243 Y134.306 E8.01818
G1 X70.093 Y134.317 E8.04645
G1 X71.012 Y134.37 E8.07707
G1 X71.923 Y134.503 E8.10769
G1 X72.819 Y134.714 E8.13831
G1 X73.693 Y135.002 E8.16891
G1 X74.54 Y135.365 E8.19956
G1 X75.351 Y135.8 E8.23017
G1 X76.121 Y136.304 E8.26078
G1 X76.845 Y136.873 E8.29141
G1 X77.517 Y137.503 E8.32204
G1 X78.132 Y138.188 E8.35266
G1 X78.685 Y138.924 E8.38328
G1 X79.172 Y139.705 E8.41389
G1 X79.589 Y140.526 E8.44452
G1 X79.934 Y141.38 E8.47516
G1 X80.203 Y142.26 E8.50576
G1 X80.395 Y143.161 E8.5364
G1 X80.508 Y144.074 E8.567
G1 X80.537 Y144.618 E8.58512
G1 X80.546 Y144.938 E8.59577
G1 X80.55 Y145.236 E8.60568
G1 X80.549 Y184.489 E9.91124
G1 X80.54 Y185.216 E9.93542
G1 X80.489 Y186.135 E9.96603
G1 X80.358 Y187.047 E9.99668
G1 X80.148 Y187.943 E10.02729
G1 X79.862 Y188.818 E10.0579
G1 X79.501 Y189.665 E10.08853
G1 X79.067 Y190.477 E10.11915
G1 X78.565 Y191.249 E10.14978
G1 X77.997 Y191.974 E10.18041
G1 X77.369 Y192.647 E10.21103
G1 X76.685 Y193.263 E10.24164
G1 X75.95 Y193.817 E10.27226
G1 X75.17 Y194.306 E10.30288
G1 X74.35 Y194.725 E10.3335
G1 X73.497 Y195.071 E10.36412
G1 X72.617 Y195.342 E10.39474
G1 X71.717 Y195.535 E10.42536
G1 X70.803 Y195.65 E10.456
G1 X70.238 Y195.681 E10.47482
G1 X69.917 Y195.69 E10.4855
G1 X69.62 Y195.694 E10.49538
G1 X40.62 Y195.693 E11.45992
G1 X39.922 Y195.684 E11.48314
G1 X39.003 Y195.632 E11.51376
G1 X38.092 Y195.501 E11.54437
G1 X37.196 Y195.291 E11.57498
G1 X36.321 Y195.004 E11.6056
G1 X35.474 Y194.642 E11.63624
G1 X34.662 Y194.208 E11.66686
G1 X33.891 Y193.706 E11.69746
G1 X33.166 Y193.138 E11.7281
G1 X32.493 Y192.509 E11.75873
G1 X31.878 Y191.825 E11.78933
G1 X31.324 Y191.09 E11.81994
G1 X30.836 Y190.309 E11.85057
G1 X30.417 Y189.489 E11.8812
G1 X30.071 Y188.636 E11.91181
G1 X29.801 Y187.756 E11.94243
G1 X29.608 Y186.855 E11.97308
G1 X29.494 Y185.942 E12.00368
G1 X29.463 Y185.371 E12.0227
G1 X29.454 Y185.038 E12.03378
G1 X29.45 Y184.752 E12.04329
G1 X29.451 Y145.437 E13.35091
G1 X29.46 Y144.772 E13.37303
G1 X29.512 Y143.852 E13.40368
G1 X29.644 Y142.941 E13.4343
G1 X29.855 Y142.045 E13.46491
G1 X30.142 Y141.17 E13.49554
G1 X30.505 Y140.324 E13.52616
G1 X30.939 Y139.512 E13.55678
G1 X31.442 Y138.741 E13.5874
G1 X32.011 Y138.017 E13.61803
G1 X32.639 Y137.345 E13.64862
G1 X33.324 Y136.729 E13.67926
G1 X34.06 Y136.176 E13.70988
G1 X34.841 Y135.688 E13.74051
G1 X35.661 Y135.27 E13.77112
G1 X36.515 Y134.925 E13.80176
G1 X37.395 Y134.655 E13.83237
G0 F6000 X36.877 Y135.224
G1 F1200 X37.746 Y134.981 E13.86239
G1 X38.634 Y134.815 E13.89243
G1 X39.773 Y134.719 E13.93045
G1 X40.094 Y134.71 E13.94113
G1 X40.38 Y134.706 E13.95064
G1 X69.243 Y134.706 E14.91063
G1 X70.087 Y134.717 E14.93871
G1 X70.989 Y134.77 E14.96876
G1 X71.882 Y134.902 E14.99878
G1 X72.76 Y135.113 E15.02882
G1 X73.616 Y135.401 E15.05885
G1 X74.443 Y135.763 E15.08888
G1 X75.235 Y136.198 E15.11893
G1 X75.986 Y136.7 E15.14898
G1 X76.689 Y137.267 E15.17902
G1 X77.339 Y137.894 E15.20906
G1 X77.931 Y138.576 E15.23909
G1 X78.461 Y139.307 E15.26912
G1 X78.923 Y140.083 E15.29916
G1 X79.316 Y140.896 E15.3292
G1 X79.634 Y141.741 E15.35923
G1 X79.877 Y142.611 E15.38927
G1 X80.042 Y143.499 E15.41931
G1 X80.137 Y144.629 E15.45703
G1 X80.146 Y144.949 E15.46767
G1 X80.15 Y145.236 E15.47722
G1 X80.149 Y184.484 E16.78261
G1 X80.14 Y185.211 E16.8068
G1 X80.089 Y186.113 E16.83684
G1 X79.958 Y187.007 E16.8669
G1 X79.749 Y187.885 E16.89692
G1 X79.463 Y188.742 E16.92696
G1 X79.102 Y189.57 E16.95701
G1 X78.67 Y190.362 E16.98701
G1 X78.169 Y191.114 E17.01707
G1 X77.603 Y191.818 E17.04711
G1 X76.978 Y192.469 E17.07713
G1 X76.297 Y193.063 E17.10718
G1 X75.566 Y193.594 E17.13723
G1 X74.792 Y194.058 E17.16725
G1 X73.979 Y194.452 E17.1973
G1 X73.135 Y194.772 E17.22732
G1 X72.265 Y195.017 E17.25738
G1 X71.378 Y195.183 E17.28739
G1 X70.227 Y195.281 E17.32582
G1 X69.906 Y195.29 E17.3365
G1 X69.62 Y195.294 E17.34601
G1 X40.625 Y195.293 E18.31039
G1 X39.927 Y195.284 E18.3336
G1 X39.026 Y195.233 E18.36362
G1 X38.132 Y195.101 E18.39368
G1 X37.254 Y194.892 E18.4237
G1 X36.397 Y194.605 E18.45376
G1 X35.57 Y194.244 E18.48377
G1 X34.777 Y193.811 E18.51382
G1 X34.026 Y193.31 E18.54385
G1 X33.322 Y192.744 E18.57389
G1 X32.671 Y192.118 E18.60393
G1 X32.078 Y191.437 E18.63396
G1 X31.548 Y190.706 E18.66399
G1 X31.084 Y189.931 E18.69404
G1 X30.69 Y189.118 E18.72409
G1 X30.37 Y188.274 E18.75411
G1 X30.126 Y187.404 E18.78416
G1 X29.96 Y186.516 E18.81421
G1 X29.863 Y185.361 E18.85276
G1 X29.854 Y185.028 E18.86384
G1 X29.85 Y184.752 E18.87302
G1 X29.851 Y145.442 E20.18047
G1 X29.86 Y144.777 E20.20259
G1 X29.912 Y143.875 E20.23264
G1 X30.044 Y142.982 E20.26267
G1 X30.254 Y142.104 E20.29269
G1 X30.541 Y141.247 E20.32275
G1 X30.903 Y140.42 E20.35278
G1 X31.336 Y139.628 E20.3828
G1 X31.838 Y138.877 E20.41285
G1 X32.405 Y138.173 E20.44291
G1 X33.031 Y137.523 E20.47293
G1 X33.712 Y136.93 E20.50296
G1 X34.444 Y136.4 E20.53302
G1 X35.219 Y135.937 E20.56304
G1 X36.032 Y135.544 E20.59308
G1 X36.877 Y135.224 E20.62313
G1 F1500 E14.12313
;MESH:Joystick Tester.STL
G0 F6000 X40.464 Y144.241
G0 X40.464 Y145.32
G0 X41.232 Y183.912
G0 X68.95 Y184.094
;TYPE:WALL-INNER
G1 F1500 E20.62313
G1 F1200 X41.05 Y184.094 E21.55109
G1 X41.05 Y145.906 E22.82123
G1 X68.95 Y145.906 E23.74918
G1 X68.95 Y184.094 E25.01932
G0 F6000 X69.35 Y184.494
G1 F1200 X40.65 Y184.494 E25.97389
G1 X40.65 Y145.506 E27.27063
G1 X69.35 Y145.506 E28.2252
G1 X69.35 Y184.494 E29.52195
G0 F6000 X69.75 Y184.894
;TYPE:WALL-OUTER
G1 F1200 X40.25 Y184.894 E30.50312
G1 X40.25 Y145.106 E31.82648
G1 X69.75 Y145.106 E32.80765
G1 X69.75 Y184.894 E34.131
G0 F6000 X69.48 Y184.624
G0 X68.84 Y183.704
G0 X68.56 Y183.704
;TYPE:SKIN
G1 F1200 X41.44 Y183.704 E35.03302
G1 X41.44 Y146.296 E36.27721
G1 X68.56 Y146.296 E37.17923
G1 X68.56 Y183.704 E38.42342
G0 F6000 X68.84 Y183.704
G0 X42.121 Y183.984
G0 X42.121 Y183.543
G1 F1200 X41.599 Y183.021 E38.44798
G0 F6000 X41.599 Y182.455
G1 F1200 X42.687 Y183.543 E38.49915
G0 F6000 X43.253 Y183.543
G1 F1200 X41.599 Y181.889 E38.57695
G0 F6000 X41.599 Y181.324
G1 F1200 X43.818 Y183.543 E38.68133
G0 F6000 X44.384 Y183.543
G1 F1200 X41.599 Y180.758 E38.81232
G0 F6000 X41.599 Y180.192
G1 F1200 X44.95 Y183.543 E38.96995
G0 F6000 X45.515 Y183.543
G1 F1200 X41.599 Y179.627 E39.15414
G0 F6000 X41.599 Y179.061
G1 F1200 X46.081 Y183.543 E39.36496
G0 F6000 X46.647 Y183.543
G1 F1200 X41.599 Y178.495 E39.6024
G0 F6000 X41.599 Y177.929
G1 F1200 X47.212 Y183.543 E39.86645
G0 F6000 X47.778 Y183.543
G1 F1200 X41.599 Y177.364 E40.15709
G0 F6000 X41.599 Y176.798
G1 F1200 X48.344 Y183.543 E40.47435
G0 F6000 X48.909 Y183.543
G1 F1200 X41.599 Y176.232 E40.81821
G0 F6000 X41.599 Y175.667
G1 F1200 X49.475 Y183.543 E41.18868
G0 F6000 X50.041 Y183.543
G1 F1200 X41.599 Y175.101 E41.58576
G0 F6000 X41.599 Y174.535
G1 F1200 X50.606 Y183.543 E42.00945
G0 F6000 X51.172 Y183.543
G1 F1200 X41.599 Y173.97 E42.45973
G0 F6000 X41.599 Y173.404
G1 F1200 X51.738 Y183.543 E42.93664
G0 F6000 X52.303 Y183.543
G1 F1200 X41.599 Y172.838 E43.44015
G0 F6000 X41.599 Y172.273
G1 F1200 X52.869 Y183.543 E43.97025
G0 F6000 X53.435 Y183.543
G1 F1200 X41.599 Y171.707 E44.52698
G0 F6000 X41.599 Y171.141
G1 F1200 X54.001 Y183.543 E45.11033
G0 F6000 X54.566 Y183.543
G1 F1200 X41.599 Y170.576 E45.72026
G0 F6000 X41.599 Y170.01
G1 F1200 X55.132 Y183.543 E46.35681
G0 F6000 X55.698 Y183.543
G1 F1200 X41.599 Y169.444 E47.01999
G0 F6000 X41.599 Y168.879
G1 F1200 X56.263 Y183.543 E47.70974
G0 F6000 X56.829 Y183.543
G1 F1200 X41.599 Y168.313 E48.42611
G0 F6000 X41.599 Y167.747
G1 F1200 X57.395 Y183.543 E49.1691
G0 F6000 X57.96 Y183.543
G1 F1200 X41.599 Y167.181 E49.9387
G0 F6000 X41.599 Y166.616
G1 F1200 X58.526 Y183.543 E50.73489
G0 F6000 X59.092 Y183.543
G1 F1200 X41.599 Y166.05 E51.55771
G0 F6000 X41.599 Y165.484
G1 F1200 X59.657 Y183.543 E52.40713
G0 F6000 X60.223 Y183.543
G1 F1200 X41.599 Y164.919 E53.28314
G0 F6000 X41.599 Y164.353
G1 F1200 X60.789 Y183.543 E54.18578
G0 F6000 X61.354 Y183.543
G1 F1200 X41.599 Y163.787 E55.11502
G0 F6000 X41.599 Y163.222
G1 F1200 X61.92 Y183.543 E56.07086
G0 F6000 X62.486 Y183.543
G1 F1200 X41.599 Y162.656 E57.05332
G0 F6000 X41.599 Y162.09
G1 F1200 X63.052 Y183.543 E58.0624
G0 F6000 X63.617 Y183.543
G1 F1200 X41.599 Y161.525 E59.09806
G0 F6000 X41.599 Y160.959
G1 F1200 X64.183 Y183.543 E60.16034
G0 F6000 X64.749 Y183.543
G1 F1200 X41.599 Y160.393 E61.24925
G0 F6000 X41.599 Y159.828
G1 F1200 X65.314 Y183.543 E62.36473
G0 F6000 X65.88 Y183.543
G1 F1200 X41.599 Y159.262 E63.50683
G0 F6000 X41.599 Y158.696
G1 F1200 X66.446 Y183.543 E64.67556
G0 F6000 X67.011 Y183.543
G1 F1200 X41.599 Y158.13 E65.87089
G0 F6000 X41.599 Y157.565
G1 F1200 X67.577 Y183.543 E67.09281
G0 F6000 X68.143 Y183.543
G1 F1200 X41.599 Y156.999 E68.34136
G0 F6000 X41.599 Y156.433
G1 F1200 X68.4 Y183.234 E69.602
G0 F6000 X68.4 Y182.669
G1 F1200 X41.599 Y155.868 E70.86263
G0 F6000 X41.599 Y155.302
G1 F1200 X68.4 Y182.103 E72.12327
G0 F6000 X68.4 Y181.537
G1 F1200 X41.599 Y154.736 E73.38391
G0 F6000 X41.599 Y154.171
G1 F1200 X68.4 Y180.971 E74.64452
G0 F6000 X68.4 Y180.406
G1 F1200 X41.599 Y153.605 E75.90516
G0 F6000 X41.599 Y153.039
G1 F1200 X68.4 Y179.84 E77.16579
G0 F6000 X68.4 Y179.274
G1 F1200 X41.599 Y152.474 E78.42641
G0 F6000 X41.599 Y151.908
G1 F1200 X68.4 Y178.709 E79.68704
G0 F6000 X68.4 Y178.143
G1 F1200 X41.599 Y151.342 E80.94768
G0 F6000 X41.599 Y150.777
G1 F1200 X68.4 Y177.577 E82.20829
G0 F6000 X68.4 Y177.012
G1 F1200 X41.599 Y150.211 E83.46893
G0 F6000 X41.599 Y149.645
G1 F1200 X68.4 Y176.446 E84.72957
G0 F6000 X68.4 Y175.88
G1 F1200 X41.599 Y149.08 E85.99018
G0 F6000 X41.599 Y148.514
G1 F1200 X68.4 Y175.315 E87.25082
G0 F6000 X68.4 Y174.749
G1 F1200 X41.599 Y147.948 E88.51146
G0 F6000 X41.599 Y147.382
G1 F1200 X68.4 Y174.183 E89.77209
G0 F6000 X68.4 Y173.618
G1 F1200 X41.599 Y146.817 E91.03273
G0 F6000 X41.803 Y146.455
G1 F1200 X68.4 Y173.052 E92.28377
G0 F6000 X68.4 Y172.486
G1 F1200 X42.369 Y146.455 E93.50819
G0 F6000 X42.934 Y146.455
G1 F1200 X68.4 Y171.92 E94.70601
G0 F6000 X68.4 Y171.355
G1 F1200 X43.5 Y146.455 E95.87723
G0 F6000 X44.066 Y146.455
G1 F1200 X68.4 Y170.789 E97.02182
G0 F6000 X68.4 Y170.223
G1 F1200 X44.631 Y146.455 E98.13982
G0 F6000 X45.197 Y146.455
G1 F1200 X68.4 Y169.658 E99.23122
G0 F6000 X68.4 Y169.092
G1 F1200 X45.763 Y146.455 E100.29599
G0 F6000 X46.328 Y146.455
G1 F1200 X68.4 Y168.526 E101.33417
G0 F6000 X68.4 Y167.961
G1 F1200 X46.894 Y146.455 E102.34575
G0 F6000 X47.46 Y146.455
G1 F1200 X68.4 Y167.395 E103.3307
G0 F6000 X68.4 Y166.829
G1 F1200 X48.025 Y146.455 E104.28905
G0 F6000 X48.591 Y146.455
G1 F1200 X68.4 Y166.264 E105.22081
G0 F6000 X68.4 Y165.698
G1 F1200 X49.157 Y146.455 E106.12594
G0 F6000 X49.723 Y146.455
G1 F1200 X68.4 Y165.132 E107.00445
G0 F6000 X68.4 Y164.567
G1 F1200 X50.288 Y146.455 E107.85638
G0 F6000 X50.854 Y146.455
G1 F1200 X68.4 Y164.001 E108.68169
G0 F6000 X68.4 Y163.435
G1 F1200 X51.42 Y146.455 E109.48038
G0 F6000 X51.985 Y146.455
G1 F1200 X68.4 Y162.87 E110.25249
G0 F6000 X68.4 Y162.304
G1 F1200 X52.551 Y146.455 E110.99798
G0 F6000 X53.117 Y146.455
G1 F1200 X68.4 Y161.738 E111.71684
G0 F6000 X68.4 Y161.172
G1 F1200 X53.682 Y146.455 E112.40911
G0 F6000 X54.248 Y146.455
G1 F1200 X68.4 Y160.607 E113.07478
G0 F6000 X68.4 Y160.041
G1 F1200 X54.814 Y146.455 E113.71382
G0 F6000 X55.379 Y146.455
G1 F1200 X68.4 Y159.475 E114.32627
G0 F6000 X68.4 Y158.91
G1 F1200 X55.945 Y146.455 E114.91211
G0 F6000 X56.511 Y146.455
G1 F1200 X68.4 Y158.344 E115.47133
G0 F6000 X68.4 Y157.778
G1 F1200 X57.076 Y146.455 E116.00396
G0 F6000 X57.642 Y146.455
G1 F1200 X68.4 Y157.213 E116.50998
G0 F6000 X68.4 Y156.647
G1 F1200 X58.208 Y146.455 E116.98938
G0 F6000 X58.774 Y146.455
G1 F1200 X68.4 Y156.081 E117.44216
G0 F6000 X68.4 Y155.516
G1 F1200 X59.339 Y146.455 E117.86836
G0 F6000 X59.905 Y146.455
G1 F1200 X68.4 Y154.95 E118.26794
G0 F6000 X68.4 Y154.384
G1 F1200 X60.471 Y146.455 E118.64089
G0 F6000 X61.036 Y146.455
G1 F1200 X68.4 Y153.819 E118.98727
G0 F6000 X68.4 Y153.253
G1 F1200 X61.602 Y146.455 E119.30703
G0 F6000 X62.168 Y146.455
G1 F1200 X68.4 Y152.687 E119.60016
G0 F6000 X68.4 Y152.122
G1 F1200 X62.733 Y146.455 E119.86672
G0 F6000 X63.299 Y146.455
G1 F1200 X68.4 Y151.556 E120.10666
G0 F6000 X68.4 Y150.99
G1 F1200 X63.865 Y146.455 E120.31997
G0 F6000 X64.43 Y146.455
G1 F1200 X68.4 Y150.424 E120.50668
G0 F6000 X68.4 Y149.859
G1 F1200 X64.996 Y146.455 E120.6668
G0 F6000 X65.562 Y146.455
G1 F1200 X68.4 Y149.293 E120.80029
G0 F6000 X68.4 Y148.727
