;FLAVOR:Marlin
;TIME:3694
;Filament used: 1.45972m
;Layer height: 0.12
;MINX:86.95
;MINY:83.233
;MINZ:0.12
;MAXX:133.05
;MAXY:136.767
;MAXZ:10.2
;Generated with Cura_SteamEngine 4.8.0
M140 S60
M105
M190 S60
M104 S200
M105
M109 S200
M82 ;absolute extrusion mode
; Ender 3 Custom Start G-code
G92 E0 ; Reset Extruder
G28 ; Home all axes
G1 Z2.0 F3000 ; Move Z Axis up little to prevent scratching of Heat Bed
G1 X0.1 Y20 Z0.3 F5000.0 ; Move to start position
G1 X0.1 Y200.0 Z0.3 F1500.0 E15 ; Draw the first line
G1 X0.4 Y200.0 Z0.3 F5000.0 ; Move to side a little
G1 X0.4 Y20 Z0.3 F1500.0 E30 ; Draw the second line
G92 E0 ; Reset Extruder
G1 Z2.0 F3000 ; Move Z Axis up little to prevent scratching of Heat Bed
G1 X5 Y20 Z0.3 F5000.0 ; Move over to prevent blob squish
G92 E0
G92 E0
G1 F1500 E-6.5
;LAYER_COUNT:85
;LAYER:0
M107
G0 F6000 X90.148 Y86.497 Z0.12
;TYPE:SKIRT
G1 F1500 E0
G1 F1200 X90.836 Y85.86 E0.01871
G1 X91.576 Y85.284 E0.03742
G1 X92.362 Y84.772 E0.05614
G1 X93.189 Y84.33 E0.07486
G1 X94.051 Y83.96 E0.09358
G1 X94.941 Y83.664 E0.11229
G1 X95.853 Y83.446 E0.13101
G1 X96.78 Y83.305 E0.14972
G1 X97.651 Y83.246 E0.16714
G1 X97.972 Y83.237 E0.17355
G1 X98.28 Y83.233 E0.1797
G1 X121.343 Y83.233 E0.63994
G1 X122.199 Y83.244 E0.65703
G1 X123.135 Y83.298 E0.67574
G1 X124.063 Y83.43 E0.69444
G1 X124.977 Y83.642 E0.71317
G1 X125.869 Y83.931 E0.73188
G1 X126.734 Y84.294 E0.7506
G1 X127.564 Y84.73 E0.76931
G1 X128.355 Y85.235 E0.78804
G1 X129.099 Y85.806 E0.80675
G1 X129.792 Y86.438 E0.82547
G1 X130.429 Y87.126 E0.84418
G1 X131.004 Y87.867 E0.8629
G1 X131.515 Y88.653 E0.88161
G1 X131.957 Y89.481 E0.90034
G1 X132.326 Y90.343 E0.91905
G1 X132.621 Y91.233 E0.93776
G1 X132.839 Y92.145 E0.95647
G1 X132.979 Y93.073 E0.9752
G1 X133.037 Y93.934 E0.99242
G1 X133.046 Y94.254 E0.99881
G1 X133.05 Y94.563 E1.00498
G1 X133.049 Y125.167 E1.61572
G1 X133.04 Y125.894 E1.63022
G1 X132.989 Y126.831 E1.64895
G1 X132.857 Y127.759 E1.66766
G1 X132.648 Y128.673 E1.68637
G1 X132.361 Y129.566 E1.70509
G1 X131.999 Y130.432 E1.72382
G1 X131.565 Y131.263 E1.74253
G1 X131.061 Y132.054 E1.76124
G1 X130.492 Y132.799 E1.77995
G1 X129.861 Y133.494 E1.79868
G1 X129.174 Y134.132 E1.81739
G1 X128.435 Y134.709 E1.8361
G1 X127.649 Y135.221 E1.85482
G1 X126.823 Y135.664 E1.87353
G1 X125.961 Y136.036 E1.89226
G1 X125.072 Y136.332 E1.91096
G1 X124.16 Y136.552 E1.92968
G1 X123.233 Y136.693 E1.9484
G1 X122.349 Y136.754 E1.96608
G1 X122.028 Y136.763 E1.97249
G1 X121.72 Y136.767 E1.97864
G1 X98.515 Y136.766 E2.44172
G1 X97.817 Y136.757 E2.45565
G1 X96.881 Y136.705 E2.47435
G1 X95.952 Y136.573 E2.49308
G1 X95.038 Y136.363 E2.51179
G1 X94.145 Y136.076 E2.53051
G1 X93.28 Y135.713 E2.54923
G1 X92.449 Y135.279 E2.56794
G1 X91.658 Y134.775 E2.58666
G1 X90.913 Y134.205 E2.60538
G1 X90.219 Y133.574 E2.6241
G1 X89.582 Y132.887 E2.64279
G1 X89.005 Y132.147 E2.66152
G1 X88.493 Y131.361 E2.68024
G1 X88.05 Y130.534 E2.69896
G1 X87.679 Y129.673 E2.71767
G1 X87.383 Y128.783 E2.73639
G1 X87.164 Y127.871 E2.75511
G1 X87.023 Y126.944 E2.77382
G1 X86.963 Y126.055 E2.7916
G1 X86.954 Y125.722 E2.79825
G1 X86.95 Y125.425 E2.80418
G1 X86.951 Y94.758 E3.41617
G1 X86.96 Y94.093 E3.42944
G1 X87.013 Y93.157 E3.44815
G1 X87.145 Y92.228 E3.46687
G1 X87.356 Y91.314 E3.48559
G1 X87.644 Y90.422 E3.5043
G1 X88.007 Y89.557 E3.52302
G1 X88.442 Y88.726 E3.54174
G1 X88.946 Y87.936 E3.56044
G1 X89.516 Y87.191 E3.57916
G1 X90.148 Y86.497 E3.59789
G0 F6000 X90.539 Y86.672
G1 F1200 X91.224 Y86.056 E3.61627
G1 X91.96 Y85.503 E3.63465
G1 X92.741 Y85.015 E3.65302
G1 X93.561 Y84.597 E3.67139
G1 X94.415 Y84.252 E3.68977
G1 X95.295 Y83.982 E3.70814
G1 X96.195 Y83.79 E3.72651
G1 X97.109 Y83.676 E3.74489
G1 X97.662 Y83.646 E3.75594
G1 X97.983 Y83.637 E3.76235
G1 X98.28 Y83.633 E3.76828
G1 X121.343 Y83.633 E4.22852
G1 X122.193 Y83.644 E4.24549
G1 X123.112 Y83.697 E4.26386
G1 X124.023 Y83.83 E4.28223
G1 X124.919 Y84.041 E4.3006
G1 X125.793 Y84.329 E4.31896
G1 X126.64 Y84.692 E4.33735
G1 X127.451 Y85.127 E4.35572
G1 X128.221 Y85.631 E4.37408
G1 X128.945 Y86.2 E4.39246
G1 X129.617 Y86.83 E4.41084
G1 X130.232 Y87.515 E4.42921
G1 X130.785 Y88.251 E4.44758
G1 X131.272 Y89.032 E4.46595
G1 X131.689 Y89.853 E4.48433
G1 X132.034 Y90.707 E4.50271
G1 X132.303 Y91.587 E4.52107
G1 X132.495 Y92.488 E4.53946
G1 X132.608 Y93.401 E4.55782
G1 X132.637 Y93.945 E4.56869
G1 X132.646 Y94.265 E4.57508
G1 X132.65 Y94.563 E4.58102
G1 X132.649 Y125.162 E5.19166
G1 X132.64 Y125.889 E5.20617
G1 X132.589 Y126.808 E5.22454
G1 X132.458 Y127.72 E5.24292
G1 X132.248 Y128.616 E5.26129
G1 X131.962 Y129.491 E5.27966
G1 X131.601 Y130.338 E5.29803
G1 X131.167 Y131.15 E5.31641
G1 X130.665 Y131.922 E5.33478
G1 X130.097 Y132.647 E5.35316
G1 X129.469 Y133.32 E5.37153
G1 X128.785 Y133.936 E5.3899
G1 X128.05 Y134.49 E5.40827
G1 X127.27 Y134.979 E5.42664
G1 X126.45 Y135.398 E5.44502
G1 X125.597 Y135.744 E5.46339
G1 X124.717 Y136.015 E5.48176
G1 X123.817 Y136.208 E5.50013
G1 X122.903 Y136.323 E5.51852
G1 X122.338 Y136.354 E5.52981
G1 X122.017 Y136.363 E5.53622
G1 X121.72 Y136.367 E5.54214
G1 X98.52 Y136.366 E6.00512
G1 X97.822 Y136.357 E6.01905
G1 X96.903 Y136.305 E6.03742
G1 X95.992 Y136.174 E6.05579
G1 X95.096 Y135.964 E6.07416
G1 X94.221 Y135.677 E6.09253
G1 X93.374 Y135.315 E6.11091
G1 X92.562 Y134.881 E6.12929
G1 X91.791 Y134.379 E6.14765
G1 X91.066 Y133.811 E6.16603
G1 X90.393 Y133.182 E6.18441
G1 X89.778 Y132.498 E6.20277
G1 X89.224 Y131.763 E6.22113
G1 X88.736 Y130.982 E6.23951
G1 X88.317 Y130.162 E6.25789
G1 X87.971 Y129.309 E6.27626
G1 X87.701 Y128.429 E6.29463
G1 X87.508 Y127.528 E6.31302
G1 X87.394 Y126.615 E6.33138
G1 X87.363 Y126.044 E6.34279
G1 X87.354 Y125.711 E6.34944
G1 X87.35 Y125.425 E6.35515
G1 X87.351 Y94.764 E6.96702
G1 X87.36 Y94.099 E6.98029
G1 X87.412 Y93.179 E6.99868
G1 X87.544 Y92.268 E7.01705
G1 X87.755 Y91.372 E7.03542
G1 X88.042 Y90.497 E7.0538
G1 X88.405 Y89.651 E7.07217
G1 X88.839 Y88.839 E7.09054
G1 X89.342 Y88.068 E7.10891
G1 X89.911 Y87.344 E7.12729
G1 X90.539 Y86.672 E7.14564
G0 F6000 X90.931 Y86.85
G1 F1200 X91.612 Y86.257 E7.16366
G1 X92.344 Y85.727 E7.1817
G1 X93.119 Y85.264 E7.19971
G1 X93.932 Y84.871 E7.21774
G1 X94.777 Y84.551 E7.23577
G1 X95.646 Y84.308 E7.25377
G1 X96.534 Y84.142 E7.2718
G1 X97.673 Y84.046 E7.29461
G1 X97.994 Y84.037 E7.30102
G1 X98.28 Y84.033 E7.30673
G1 X121.343 Y84.033 E7.76698
G1 X122.187 Y84.044 E7.78382
G1 X123.089 Y84.097 E7.80185
G1 X123.982 Y84.229 E7.81987
G1 X124.86 Y84.44 E7.83789
G1 X125.716 Y84.728 E7.85591
G1 X126.543 Y85.09 E7.87393
G1 X127.335 Y85.525 E7.89196
G1 X128.086 Y86.027 E7.90998
G1 X128.789 Y86.594 E7.92801
G1 X129.439 Y87.221 E7.94603
G1 X130.031 Y87.903 E7.96405
G1 X130.561 Y88.634 E7.98207
G1 X131.023 Y89.41 E8.00009
G1 X131.416 Y90.223 E8.01811
G1 X131.734 Y91.068 E8.03613
G1 X131.977 Y91.938 E8.05416
G1 X132.142 Y92.826 E8.07218
G1 X132.237 Y93.956 E8.09481
G1 X132.246 Y94.276 E8.1012
G1 X132.25 Y94.563 E8.10693
G1 X132.249 Y125.157 E8.71747
G1 X132.24 Y125.884 E8.73197
G1 X132.189 Y126.786 E8.75
G1 X132.058 Y127.68 E8.76804
G1 X131.849 Y128.558 E8.78605
G1 X131.563 Y129.415 E8.80408
G1 X131.202 Y130.243 E8.8221
G1 X130.77 Y131.035 E8.84011
G1 X130.269 Y131.787 E8.85814
G1 X129.703 Y132.491 E8.87616
G1 X129.078 Y133.142 E8.89417
G1 X128.397 Y133.736 E8.91221
G1 X127.666 Y134.267 E8.93024
G1 X126.892 Y134.731 E8.94825
G1 X126.079 Y135.125 E8.96628
G1 X125.235 Y135.445 E8.98429
G1 X124.365 Y135.69 E9.00233
G1 X123.478 Y135.856 E9.02033
G1 X122.327 Y135.954 E9.04339
G1 X122.006 Y135.963 E9.04979
G1 X121.72 Y135.967 E9.0555
G1 X98.525 Y135.966 E9.51838
G1 X97.827 Y135.957 E9.53231
G1 X96.926 Y135.906 E9.55032
G1 X96.032 Y135.774 E9.56836
G1 X95.154 Y135.565 E9.58637
G1 X94.297 Y135.278 E9.6044
G1 X93.47 Y134.917 E9.62241
G1 X92.677 Y134.484 E9.64044
G1 X91.926 Y133.983 E9.65846
G1 X91.222 Y133.417 E9.67649
G1 X90.571 Y132.791 E9.69451
G1 X89.978 Y132.11 E9.71253
G1 X89.448 Y131.379 E9.73055
G1 X88.984 Y130.604 E9.74857
G1 X88.59 Y129.791 E9.7666
G1 X88.27 Y128.947 E9.78462
G1 X88.026 Y128.077 E9.80265
G1 X87.86 Y127.189 E9.82068
G1 X87.763 Y126.034 E9.84381
G1 X87.754 Y125.701 E9.85045
G1 X87.75 Y125.425 E9.85596
G1 X87.751 Y94.769 E10.46774
G1 X87.76 Y94.104 E10.48101
G1 X87.812 Y93.202 E10.49904
G1 X87.944 Y92.309 E10.51705
G1 X88.154 Y91.431 E10.53507
G1 X88.441 Y90.574 E10.5531
G1 X88.803 Y89.747 E10.57112
G1 X89.236 Y88.955 E10.58913
G1 X89.738 Y88.204 E10.60716
G1 X90.305 Y87.5 E10.6252
G1 X90.931 Y86.85 E10.64321
G1 F1500 E4.14321
;MESH:Rotary Encoder Fix.STL
G0 F6000 X98.364 Y93.568
G0 X98.364 Y94.647
G0 X99.132 Y124.585
G0 X121.05 Y124.767
;TYPE:WALL-INNER
G1 F1500 E10.64321
G1 F1200 X98.95 Y124.767 E11.08424
G1 X98.95 Y95.233 E11.67362
G1 X121.05 Y95.233 E12.11465
G1 X121.05 Y124.767 E12.70403
G0 F6000 X121.45 Y125.167
G1 F1200 X98.55 Y125.167 E13.16103
G1 X98.55 Y94.833 E13.76637
G1 X121.45 Y94.833 E14.22337
G1 X121.45 Y125.167 E14.82872
G0 F6000 X121.85 Y125.567
;TYPE:WALL-OUTER
G1 F1200 X98.15 Y125.567 E15.30168
G1 X98.15 Y94.433 E15.92299
G1 X121.85 Y94.433 E16.39595
G1 X121.85 Y125.567 E17.01726
G0 F6000 X121.58 Y125.297
G0 X120.94 Y124.377
G0 X120.66 Y124.377
;TYPE:SKIN
G1 F1200 X99.34 Y124.377 E17.44272
G1 X99.34 Y95.623 E18.01654
G1 X120.66 Y95.623 E18.442
G1 X120.66 Y124.377 E19.01582
G0 F6000 X120.94 Y124.377
G0 X99.891 Y124.657
G0 X99.891 Y124.216
G1 F1200 X99.499 Y123.823 E19.0269
G0 F6000 X99.499 Y123.257
G1 F1200 X100.457 Y124.216 E19.05395
G0 F6000 X101.022 Y124.216
G1 F1200 X99.499 Y122.692 E19.09695
G0 F6000 X99.499 Y122.126
G1 F1200 X101.588 Y124.216 E19.15592
G0 F6000 X102.154 Y124.216
G1 F1200 X99.499 Y121.56 E19.23086
G0 F6000 X99.499 Y120.995
G1 F1200 X102.719 Y124.216 E19.32175
G0 F6000 X103.285 Y124.216
G1 F1200 X99.499 Y120.429 E19.42861
G0 F6000 X99.499 Y119.863
G1 F1200 X103.851 Y124.216 E19.55145
G0 F6000 X104.417 Y124.216
G1 F1200 X99.499 Y119.298 E19.69025
G0 F6000 X99.499 Y118.732
G1 F1200 X104.982 Y124.216 E19.845
G0 F6000 X105.548 Y124.216
G1 F1200 X99.499 Y118.166 E20.01573
G0 F6000 X99.499 Y117.601
G1 F1200 X106.114 Y124.216 E20.20242
G0 F6000 X106.679 Y124.216
G1 F1200 X99.499 Y117.035 E20.40507
G0 F6000 X99.499 Y116.469
G1 F1200 X107.245 Y124.216 E20.62369
G0 F6000 X107.811 Y124.216
G1 F1200 X99.499 Y115.903 E20.85829
G0 F6000 X99.499 Y115.338
G1 F1200 X108.376 Y124.216 E21.10883
G0 F6000 X108.942 Y124.216
G1 F1200 X99.499 Y114.772 E21.37535
G0 F6000 X99.499 Y114.206
G1 F1200 X109.508 Y124.216 E21.65784
G0 F6000 X110.073 Y124.216
G1 F1200 X99.499 Y113.641 E21.95627
G0 F6000 X99.499 Y113.075
G1 F1200 X110.639 Y124.216 E22.27068
G0 F6000 X111.205 Y124.216
G1 F1200 X99.499 Y112.509 E22.60107
G0 F6000 X99.499 Y111.944
G1 F1200 X111.77 Y124.216 E22.94739
G0 F6000 X112.336 Y124.216
G1 F1200 X99.499 Y111.378 E23.3097
G0 F6000 X99.499 Y110.812
G1 F1200 X112.902 Y124.216 E23.68797
G0 F6000 X113.468 Y124.216
G1 F1200 X99.499 Y110.247 E24.08221
G0 F6000 X99.499 Y109.681
G1 F1200 X114.033 Y124.216 E24.4924
G0 F6000 X114.599 Y124.216
G1 F1200 X99.499 Y109.115 E24.91857
G0 F6000 X99.499 Y108.55
G1 F1200 X115.165 Y124.216 E25.3607
G0 F6000 X115.73 Y124.216
G1 F1200 X99.499 Y107.984 E25.81879
G0 F6000 X99.499 Y107.418
G1 F1200 X116.296 Y124.216 E26.29285
G0 F6000 X116.862 Y124.216
G1 F1200 X99.499 Y106.853 E26.78287
G0 F6000 X99.499 Y106.287
G1 F1200 X117.427 Y124.216 E27.28885
G0 F6000 X117.993 Y124.216
G1 F1200 X99.499 Y105.721 E27.81081
G0 F6000 X99.499 Y105.155
G1 F1200 X118.559 Y124.216 E28.34873
G0 F6000 X119.124 Y124.216
G1 F1200 X99.499 Y104.59 E28.90261
G0 F6000 X99.499 Y104.024
G1 F1200 X119.69 Y124.216 E29.47246
G0 F6000 X120.256 Y124.216
G1 F1200 X99.499 Y103.458 E30.05828
G0 F6000 X99.499 Y102.893
G1 F1200 X120.5 Y123.894 E30.65097
G0 F6000 X120.5 Y123.328
G1 F1200 X99.499 Y102.327 E31.24366
G0 F6000 X99.499 Y101.761
G1 F1200 X120.5 Y122.762 E31.83636
G0 F6000 X120.5 Y122.197
G1 F1200 X99.499 Y101.196 E32.42905
G0 F6000 X99.499 Y100.63
G1 F1200 X120.5 Y121.631 E33.02175
G0 F6000 X120.5 Y121.065
G1 F1200 X99.499 Y100.064 E33.61444
G0 F6000 X99.499 Y99.499
G1 F1200 X120.5 Y120.5 E34.20713
G0 F6000 X120.5 Y119.934
G1 F1200 X99.499 Y98.933 E34.79983
G0 F6000 X99.499 Y98.367
G1 F1200 X120.5 Y119.368 E35.39252
G0 F6000 X120.5 Y118.803
G1 F1200 X99.499 Y97.802 E35.98521
G0 F6000 X99.499 Y97.236
G1 F1200 X120.5 Y118.237 E36.57791
G0 F6000 X120.5 Y117.671
G1 F1200 X99.499 Y96.67 E37.1706
G0 F6000 X99.499 Y96.105
G1 F1200 X120.5 Y117.106 E37.76329
G0 F6000 X120.5 Y116.54
G1 F1200 X99.743 Y95.783 E38.3491
G0 F6000 X100.308 Y95.783
G1 F1200 X120.5 Y115.974 E38.91895
G0 F6000 X120.5 Y115.409
G1 F1200 X100.874 Y95.783 E39.47284
G0 F6000 X101.44 Y95.783
G1 F1200 X120.5 Y114.843 E40.01075
G0 F6000 X120.5 Y114.277
G1 F1200 X102.005 Y95.783 E40.53271
G0 F6000 X102.571 Y95.783
G1 F1200 X120.5 Y113.711 E41.03869
G0 F6000 X120.5 Y113.146
G1 F1200 X103.137 Y95.783 E41.52871
G0 F6000 X103.702 Y95.783
G1 F1200 X120.5 Y112.58 E42.00277
G0 F6000 X120.5 Y112.014
G1 F1200 X104.268 Y95.783 E42.46086
G0 F6000 X104.834 Y95.783
G1 F1200 X120.5 Y111.449 E42.90299
G0 F6000 X120.5 Y110.883
G1 F1200 X105.399 Y95.783 E43.32916
G0 F6000 X105.965 Y95.783
G1 F1200 X120.5 Y110.317 E43.73935
G0 F6000 X120.5 Y109.752
G1 F1200 X106.531 Y95.783 E44.13359
G0 F6000 X107.096 Y95.783
G1 F1200 X120.5 Y109.186 E44.51186
G0 F6000 X120.5 Y108.62
G1 F1200 X107.662 Y95.783 E44.87416
G0 F6000 X108.228 Y95.783
G1 F1200 X120.5 Y108.055 E45.22051
G0 F6000 X120.5 Y107.489
G1 F1200 X108.794 Y95.783 E45.55088
G0 F6000 X109.359 Y95.783
G1 F1200 X120.5 Y106.923 E45.86528
G0 F6000 X120.5 Y106.358
G1 F1200 X109.925 Y95.783 E46.16373
G0 F6000 X110.491 Y95.783
G1 F1200 X120.5 Y105.792 E46.44621
G0 F6000 X120.5 Y105.226
G1 F1200 X111.056 Y95.783 E46.71272
G0 F6000 X111.622 Y95.783
G1 F1200 X120.5 Y104.66 E46.96327
G0 F6000 X120.5 Y104.095
G1 F1200 X112.188 Y95.783 E47.19785
G0 F6000 X112.753 Y95.783
G1 F1200 X120.5 Y103.529 E47.41647
G0 F6000 X120.5 Y102.963
G1 F1200 X113.319 Y95.783 E47.61912
G0 F6000 X113.885 Y95.783
G1 F1200 X120.5 Y102.398 E47.80581
G0 F6000 X120.5 Y101.832
G1 F1200 X114.45 Y95.783 E47.97654
G0 F6000 X115.016 Y95.783
G1 F1200 X120.5 Y101.266 E48.1313
G0 F6000 X120.5 Y100.701
G1 F1200 X115.582 Y95.783 E48.27009
G0 F6000 X116.147 Y95.783
G1 F1200 X120.5 Y100.135 E48.39293
G0 F6000 X120.5 Y99.569
G1 F1200 X116.713 Y95.783 E48.49979
G0 F6000 X117.279 Y95.783
G1 F1200 X120.5 Y99.004 E48.5907
G0 F6000 X120.5 Y98.438
G1 F1200 X117.845 Y95.783 E48.66563
G0 F6000 X118.41 Y95.783
G1 F1200 X120.5 Y97.872 E48.7246
G0 F6000 X120.5 Y97.307
G1 F1200 X118.976 Y95.783 E48.76761
G0 F6000 X119.542 Y95.783
G1 F1200 X120.5 Y96.741 E48.79465
G0 F6000 X120.5 Y96.175
G1 F1200 X120.107 Y95.783 E48.80572
G0 F6000 X120.107 Y95.043
G1 F1500 E42.30572
;MESH:NONMESH
G0 F300 X120.107 Y95.043 Z0.24
G0 F6000 X120.868 Y95.415
G0 X121.05 Y124.767
;TIME_ELAPSED:136.577818
;LAYER:1
M106 S85
;TYPE:WALL-INNER
;MESH:Rotary Encoder Fix.STL
G1 F1500 E48.80572
G1 F1350 X98.95 Y124.767 E49.24675
G1 X98.95 Y95.233 E49.83614
G1 X121.05 Y95.233 E50.27716
G1 X121.05 Y124.767 E50.86655
G0 F7500 X121.45 Y125.167
G1 F1350 X98.55 Y125.167 E51.32354
G1 X98.55 Y94.833 E51.92889
G1 X121.45 Y94.833 E52.38588
G1 X121.45 Y125.167 E52.99123
G0 F7500 X121.85 Y125.567
;TYPE:WALL-OUTER
G1 F1350 X98.15 Y125.567 E53.46419
G1 X98.15 Y94.433 E54.0855
G1 X121.85 Y94.433 E54.55846
G1 X121.85 Y125.567 E55.17977
G0 F7500 X121.58 Y125.297
G0 X120.94 Y124.377
G0 X120.66 Y124.377
;TYPE:SKIN
G1 F1350 X99.34 Y124.377 E55.60524
G1 X99.34 Y95.623 E56.17906
G1 X120.66 Y95.623 E56.60452
G1 X120.66 Y124.377 E57.17834
G0 F7500 X120.159 Y124.216
G1 F1350 X120.499 Y123.876 E57.18793
G0 F7500 X120.499 Y123.31
G1 F1350 X119.593 Y124.216 E57.2135
G0 F7500 X119.027 Y124.216
G1 F1350 X120.499 Y122.745 E57.25503
G0 F7500 X120.499 Y122.179
G1 F1350 X118.462 Y124.216 E57.31252
G0 F7500 X117.896 Y124.216
G1 F1350 X120.499 Y121.613 E57.38598
G0 F7500 X120.499 Y121.048
G1 F1350 X117.33 Y124.216 E57.4754
G0 F7500 X116.765 Y124.216
G1 F1350 X120.499 Y120.482 E57.58078
G0 F7500 X120.499 Y119.916
G1 F1350 X116.199 Y124.216 E57.70214
